!!!!SEGMENT: pl-wtm--r-1552--001-005_stefani-jozef--missa-no-13-offertorium.krn
!!!cenid: 18xx:1816
!!!COM: Stefani, Józef
!!!COM-rismID: pe30024097
!!!CDT: 1800/04/16-1876/03/19
!!!CNT: Polish
!!!OPR: Missa No 13
!!!OTL: Offertorium
!!!OMV: 005
!!!PDT:
!!!AGN: Sacred; Mass
!!!YEC: Copyright 2022 Narodowy Instytut Fryderyka Chopina (https://polishscores.org)
!!!YEM: License CC-BY-4.0 (https://creativecommons.org/licenses/by/4.0)
!!!SMS-siglum: PL-Wtm
!!!SMS-shelfmark: R 1552
!!!SMS-shelfwork: 001-005 M
!!!SMS-variant:
!!!SMS-altvar:
!!!NIFC-rismSourceID: 1001115180
!!!NIFC-rismChildID: 1001115180
!!!NIFC-islandoraID: pl-wtm:26719
!!!URL-pdf-islandora: https://repozytorium.nifc.pl/islandora/object/pl-wtm%3A26719/datastream/PDF/view
!!!URL-scan: https://polish.musicsources.pl/pl/lokalizacje/galeria/rekopisy/6353 @EN{Scan on Polish Music Sources Website} @PL{Skany w portalu Dziedzictwo Muzyki Polskiej w otwartym dostępie}
!!!IIIF:
!!!ONB-nifc: UWAGA: części Mszy: 1. Kyrie, 2. Gloria, 3. Graduale, 4. Credo, 5. Offertorium, 6. Sanctus, 7. Benedictus, 8. Agnus Dei
!!!AIN: 2 empty 1 organ 3 soprn 2 tenor 1 viola 2 violn
!!!key:
**kern	**kern	**kern	**dynam	**kern	**dynam	**kern	**dynam	**kern	**dynam	**kern	**text	**kern	**dynam	**kern	**text	**dynam	**kern	**text	**dynam	**kern	**text	**kern	**text	**dynam
*part11	*part11	*part10	*	*part9	*	*part8	*	*part7	*	*part6	*	*part5	*	*part4	*	*	*part3	*	*	*part2	*	*part1	*	*
*staff12	*staff11	*staff10	*	*staff9	*	*staff8	*	*staff7	*	*staff6	*	*staff5	*	*staff4	*	*	*staff3	*	*	*staff2	*	*staff1	*	*
*Iorgan	*Iempty	*Iempty	*	*Iviola	*	*Ivioln	*	*Ivioln	*	*Itenor	*	*Isoprn	*	*Iempty	*	*	*Itenor	*	*	*Isoprn	*	*Isoprn	*	*
*I"Organo.	*	*I"Baſsi	*	*I"Viole	*	*I"[Violino II]	*	*I"Violini	*	*I"Tenori et Baſsi [tutti]	*	*I"Soprani [tutti]	*	*I"Baſso [solo]	*	*	*I"Tenore [solo]	*	*	*I"[Soprano II solo]	*	*I"Soprani [solo]	*	*
*I'Org.	*	*I'B-i	*	*I'V-le	*	*I'[V-no II]	*	*I'V-ni	*	*I'T.B.[t.]	*	*I'S.[t.]	*	*I'B. s.]	*	*	*I'T.[s]	*	*	*I'[S.II s.]	*	*I'S.[s]	*	*
*clefF4	*clefG2	*clefF4	*	*clefC3	*	*clefG2	*	*clefG2	*	*clefF4	*	*clefG2	*	*clefF4	*	*	*clefC4	*	*	*clefG2	*	*clefG2	*	*
*	*	*Trd0c0	*	*	*	*	*	*	*	*	*	*	*	*	*	*	*	*	*	*	*	*	*	*
*k[f#c#g#d#]	*k[f#c#g#d#]	*k[f#c#g#d#]	*	*k[f#c#g#d#]	*	*k[f#c#g#d#]	*	*k[f#c#g#d#]	*	*k[f#c#g#d#]	*	*k[f#c#g#d#]	*	*k[f#c#g#d#]	*	*	*k[f#c#g#d#]	*	*	*k[f#c#g#d#]	*	*k[f#c#g#d#]	*	*
*E:	*E:	*E:	*	*E:	*	*E:	*	*E:	*	*E:	*	*E:	*	*E:	*	*	*E:	*	*	*E:	*	*E:	*	*
*M3/4	*M3/4	*M3/4	*	*M3/4	*	*M3/4	*	*M3/4	*	*M3/4	*	*M3/4	*	*M3/4	*	*	*M3/4	*	*	*M3/4	*	*M3/4	*	*
*>[A,B,B,C]	*	*	*	*	*	*	*	*	*	*	*	*	*	*	*	*	*	*	*	*	*	*	*	*
*>A	*	*	*	*	*	*	*	*	*	*	*	*	*	*	*	*	*	*	*	*	*	*	*	*
*	*^	*	*	*	*	*	*	*	*	*	*	*	*	*	*	*	*	*	*	*	*	*	*	*
!	!LO:TX:rj:a:i:t=Antantino.	!	!	!	!	!	!	!	!	!LO:DY:a	!	!	!	!	!	!	!	!	!	!	!	!	!LO:TX:a:i:t=Andantino	!	!
4G#/ 4GG#/	8.b/L	4e\	8G#\L	.	8G#/L|	.	8e/L	.	8b'\L	<	4r	.	4r	.	4r	.	.	4r	.	.	4r	.	4r	.	.
.	.	.	16r	.	16r	.	16r	.	16r	.	.	.	.	.	.	.	.	.	.	.	.	.	.	.	.
.	16b#X/Jk	.	16G#\Jk	.	16G#/Jk|	.	16e/Jk	.	16b#X'\Jk	[[	.	.	.	.	.	.	.	.	.	.	.	.	.	.	.
=1	=1	=1	=1	=1	=1	=1	=1	=1	=1	=1	=1	=1	=1	=1	=1	=1	=1	=1	=1	=1	=1	=1	=1	=1	=1
!	!	!	!	!	!	!	!	!	!	!LO:DY:a	!	!	!	!	!	!	!	!	!	!	!	!	!	!	!
4.A\ 4.AA\	(4dd#/	4.e\	4.A\	.	4.A/	.	4.e/	.	(4dd#\	>	2.r	.	2.r	.	2.r	.	.	2.r	.	.	2.r	.	2.r	.	.
.	8cc#/)	.	.	.	.	.	.	.	8cc#\)	.	.	.	.	.	.	.	.	.	.	.	.	.	.	.	.
8r	8r	8r	8r	.	8r	.	8r	.	8r	]	.	.	.	.	.	.	.	.	.	.	.	.	.	.	.
!	!	!	!	!	!	!	!	!	!	!LO:DY:a	!	!	!	!	!	!	!	!	!	!	!	!	!	!	!
4F##X/ 4FF##X/	4a#X/	4e\	8F##X\L	.	8F##X/L|	.	8e/L	.	8a#X'/L	<	.	.	.	.	.	.	.	.	.	.	.	.	.	.	.
.	.	.	16r	.	16r	.	16r	.	16r	.	.	.	.	.	.	.	.	.	.	.	.	.	.	.	.
.	.	.	16F##\Jk	.	16F##/Jk|	.	16e/Jk	.	16a#'/Jk	[[	.	.	.	.	.	.	.	.	.	.	.	.	.	.	.
=2	=2	=2	=2	=2	=2	=2	=2	=2	=2	=2	=2	=2	=2	=2	=2	=2	=2	=2	=2	=2	=2	=2	=2	=2	=2
!	!	!	!	!	!	!	!	!	!	!LO:DY:a	!	!	!	!	!	!	!	!	!	!	!	!	!	!	!
4.G#/ 4.GG#/	(4cc#/	4.e\	4.G#\	.	4.G#/	.	4.e/	.	(4cc#\	>	2.r	.	2.r	.	2.r	.	.	2.r	.	.	2.r	.	2.r	.	.
.	8b/)	.	.	.	.	.	.	.	8b\)	.	.	.	.	.	.	.	.	.	.	.	.	.	.	.	.
8r	8r	8ryy	8r	.	8r	.	8r	.	8r	]	.	.	.	.	.	.	.	.	.	.	.	.	.	.	.
4r	4r	4ryy	4r	.	4r	.	4r	.	4r	.	.	.	.	.	.	.	.	.	.	.	.	.	.	.	.
=3	=3	=3	=3	=3	=3	=3	=3	=3	=3	=3	=3	=3	=3	=3	=3	=3	=3	=3	=3	=3	=3	=3	=3	=3	=3
*	*	*2\right	*	*	*	*	*	*	*	*	*	*	*	*	*	*	*	*	*	*	*	*	*	*	*
4.A\	4.f#/	2.c#\	(4.A\	.	(4.A/	.	4.c#/	.	(4.f#/	.	2.r	.	2.r	.	2.r	.	.	2.r	.	.	2.r	.	2.r	.	.
8G#\L	8e#X/L	.	8G#\L	.	8G#/L	.	(8c#'/L	.	8e#X/L	.	.	.	.	.	.	.	.	.	.	.	.	.	.	.	.
8A\	8f#/	.	8A\	.	8A/	.	8c#'/	.	8f#/	.	.	.	.	.	.	.	.	.	.	.	.	.	.	.	.
8E#X\J	8g#/J	.	8E#X\J)	.	8E#X/J)	.	8c#'/J)	.	8g#/J)	.	.	.	.	.	.	.	.	.	.	.	.	.	.	.	.
!!LO:PB:g=original
=4	=4	=4	=4	=4	=4	=4	=4	=4	=4	=4	=4	=4	=4	=4	=4	=4	=4	=4	=4	=4	=4	=4	=4	=4	=4
[4.F#\	4.b/	2.c#\	(4.F#\	.	(4.F#/	.	4.c#/	.	(>4.b/	.	2.ryy	.	2.ryy	.	2.ryy	.	.	2.ryy	.	.	2.ryy	.	2.ryy	.	.
8F#\L]	8a/L	.	8F#\L	.	8F#/L	.	(8c#'/L	.	8a/L	.	.	.	.	.	.	.	.	.	.	.	.	.	.	.	.
8G#\	8g#/	.	8G#\	.	8G#/	.	8c#'/	.	8g#/	.	.	.	.	.	.	.	.	.	.	.	.	.	.	.	.
8A\J	8f#/J	.	8A\J)	.	8A/J)	.	8c#'/J)	.	8f#/J)	.	.	.	.	.	.	.	.	.	.	.	.	.	.	.	.
*	*v	*v	*	*	*	*	*	*	*	*	*	*	*	*	*	*	*	*	*	*	*	*	*	*	*
=5	=5	=5	=5	=5	=5	=5	=5	=5	=5	=5	=5	=5	=5	=5	=5	=5	=5	=5	=5	=5	=5	=5	=5	=5
!	!	!	!	!	!LO:DY:b	!	!	!	!LO:DY:rj:b	!	!	!	!	!	!	!	!	!	!	!	!	!	!	!
16B\LL	16g#/LL 16e/	8B\	.	16B/LL	f	8e/	.	16g#'/LL	f	2.ryy	.	2.ryy	.	2.ryy	.	.	2.ryy	.	.	2.ryy	.	2.ryy	.	.
16G#\	16g#/	.	.	16G#'/	.	.	.	16g#'/	.	.	.	.	.	.	.	.	.	.	.	.	.	.	.	.
16E\	16e/	8r	.	16E'/	.	8r	.	16e'/	.	.	.	.	.	.	.	.	.	.	.	.	.	.	.	.
16G#\JJ	16g#/JJ	.	.	16G#'/JJ	.	.	.	16g#'/JJ	.	.	.	.	.	.	.	.	.	.	.	.	.	.	.	.
*2\right	*	*	*	*	*	*	*	*	*	*	*	*	*	*	*	*	*	*	*	*	*	*	*	*
[>2B\	[>2b/	4r	.	[2B/	.	4r	.	[>2b/	.	.	.	.	.	.	.	.	.	.	.	.	.	.	.	.
.	.	4r	.	.	.	4r	.	.	.	.	.	.	.	.	.	.	.	.	.	.	.	.	.	.
=6	=6	=6	=6	=6	=6	=6	=6	=6	=6	=6	=6	=6	=6	=6	=6	=6	=6	=6	=6	=6	=6	=6	=6	=6
16B\LL]	16b/LL]	2.r	.	16B/LL]	.	2.r	.	16b/LL]	.	2.ryy	.	2.ryy	.	2.ryy	.	.	2.ryy	.	.	2.ryy	.	2.ryy	.	.
16G#\	16g#/	.	.	16G#/	.	.	.	16g#'/	.	.	.	.	.	.	.	.	.	.	.	.	.	.	.	.
16B\	16b/	.	.	16B/	.	.	.	16b'/	.	.	.	.	.	.	.	.	.	.	.	.	.	.	.	.
16e\JJ	16ee/JJ	.	.	16e/JJ	.	.	.	16ee'/JJ	.	.	.	.	.	.	.	.	.	.	.	.	.	.	.	.
2B\	[>2b/	.	.	[2B/	.	.	.	[>2b/	.	.	.	.	.	.	.	.	.	.	.	.	.	.	.	.
=7	=7	=7	=7	=7	=7	=7	=7	=7	=7	=7	=7	=7	=7	=7	=7	=7	=7	=7	=7	=7	=7	=7	=7	=7
*^	*^	*	*	*	*	*	*	*	*	*	*	*	*	*	*	*	*	*	*	*	*	*	*	*
2ryy	8B\	8b/]	4ryy	4r	.	8B/]	.	4r	.	8b/]	.	2.ryy	.	2.ryy	.	2.ryy	.	.	2.ryy	.	.	2.ryy	.	2.ryy	.	.
.	8r	8r	.	.	.	8r	.	.	.	8r	.	.	.	.	.	.	.	.	.	.	.	.	.	.	.	.
!	!	!	!	!	!	!	!	!	!	!	!LO:DY:b	!	!	!	!	!	!	!	!	!	!	!	!	!	!	!
.	.	.	.	.	p	.	.	.	.	.	p	.	.	.	.	.	.	.	.	.	.	.	.	.	.	.
.	2BB\	4g#/ 4e/	4B\	2BB/	.	4B/	.	4e/	.	4g#/	.	.	.	.	.	.	.	.	.	.	.	.	.	.	.	.
4A/	.	4f#/ 4d#/ 4B/	4ryy	.	.	4A/	.	4d#/	.	4f#/	.	.	.	.	.	.	.	.	.	.	.	.	.	.	.	.
*	*	*v	*v	*	*	*	*	*	*	*	*	*	*	*	*	*	*	*	*	*	*	*	*	*	*	*
=8	=8	=8	=8	=8	=8	=8	=8	=8	=8	=8	=8	=8	=8	=8	=8	=8	=8	=8	=8	=8	=8	=8	=8	=8	=8
4A/	4.E\	4f#/ 4d#/ 4B/	4.E\	.	(4A/	.	(4d#/	.	(4f#/	.	2.ryy	.	2.ryy	.	2.ryy	.	.	2.ryy	.	.	2.ryy	.	2.ryy	.	.
4G#/	.	8e/ 8B/	.	.	8G#/)	.	8e/)	.	8e/)	.	.	.	.	.	.	.	.	.	.	.	.	.	.	.	.
!	!	!LO:TX:t=P:problem=nadprogramowa pauza 4	!	!	!	!	!	!	!	!	!	!	!	!	!	!	!	!	!	!	!	!	!	!	!
.	8r	16f#/LL	8r	.	8r	.	8r	.	(16f#/LL	.	.	.	.	.	.	.	.	.	.	.	.	.	.	.	.
.	.	16e/J	.	.	.	.	.	.	16e/JJ	.	.	.	.	.	.	.	.	.	.	.	.	.	.	.	.
4A#X/ 4F#/	8r	8d#/J	8r	.	8r	.	8r	.	8d#/L)	.	.	.	.	.	.	.	.	.	.	.	.	.	.	.	.
.	8Cn\ 8CCn\	8e/	8Cn/	.	8F#/	.	8A#X/	.	8e/J	.	.	.	.	.	.	.	.	.	.	.	.	.	.	.	.
!!LO:LB:g=original
=9	=9	=9	=9	=9	=9	=9	=9	=9	=9	=9	=9	=9	=9	=9	=9	=9	=9	=9	=9	=9	=9	=9	=9	=9	=9
4F#/	4BB\ 4BBB\	4d#/ 4B/	4BB/	.	4F#/	.	4B/	.	4d#/	.	2.r	.	2.r	.	2.r	.	.	2.r	.	.	2.r	.	2.r	.	.
4r	4ryy	16r	4r	.	4r	.	4r	.	16r	.	.	.	.	.	.	.	.	.	.	.	.	.	.	.	.
.	.	16B'/LL	.	.	.	.	.	.	16B'/LL	.	.	.	.	.	.	.	.	.	.	.	.	.	.	.	.
.	.	16c#'/	.	.	.	.	.	.	16c#'/	.	.	.	.	.	.	.	.	.	.	.	.	.	.	.	.
.	.	16d#'/JJ	.	.	.	.	.	.	16d#'/JJ	.	.	.	.	.	.	.	.	.	.	.	.	.	.	.	.
4r	4ryy	16e'/LL	4r	.	4r	.	16r	.	16e'/LL	.	.	.	.	.	.	.	.	.	.	.	.	.	.	.	.
.	.	16f#/ 16d#'/	.	.	.	.	16d#'/LL	.	16f#'/	.	.	.	.	.	.	.	.	.	.	.	.	.	.	.	.
.	.	16g#/ 16e'/	.	.	.	.	16e'/	.	16g#'/	.	.	.	.	.	.	.	.	.	.	.	.	.	.	.	.
.	.	16a/JJ 16f#'/	.	.	.	.	16f#'/JJ	.	16a'/JJ	.	.	.	.	.	.	.	.	.	.	.	.	.	.	.	.
*v	*v	*	*	*	*	*	*	*	*	*	*	*	*	*	*	*	*	*	*	*	*	*	*	*	*
=10	=10	=10	=10	=10	=10	=10	=10	=10	=10	=10	=10	=10	=10	=10	=10	=10	=10	=10	=10	=10	=10	=10	=10	=10
!	!	!	!LO:DY:rj:a	!	!	!	!	!	!LO:DY:b	!	!	!	!	!	!	!	!	!	!	!	!	!LO:TX:rj:a:i:t=dolce	!	!
8E/ 8EE/	8b/L 8g#/	8E\	p	8r	.	8g#/L	.	(4.b/	p	2.r	.	2.r	.	2.r	.	.	2.r	.	.	2.r	.	(4.b\	Przyj-	.
8r	8g#/J 8e/ 8B/	8r	.	8e\	.	8g#/J	.	.	.	.	.	.	.	.	.	.	.	.	.	.	.	.	.	.
8E/ 8EE/	8r	8E\	.	8r	.	8r	.	.	.	.	.	.	.	.	.	.	.	.	.	.	.	.	.	.
8r	8g#/ 8e/ 8B/	8r	.	8e\	.	8g#/	.	16cc#/LL	.	.	.	.	.	.	.	.	.	.	.	.	.	16cc#\LL	.	.
.	.	.	.	.	.	.	.	16b/JJ)	.	.	.	.	.	.	.	.	.	.	.	.	.	16b\JJ)	.	.
8E/ 8EE/	8r	8E\	.	8r	.	8r	.	8g#/L	.	.	.	.	.	.	.	.	.	.	.	.	.	(8g#/L	-mij	.
8r	8g#/ 8e/ 8B/	8r	.	8B/	.	8g#/	.	8e/J	.	.	.	.	.	.	.	.	.	.	.	.	.	8e/J)	.	.
=11	=11	=11	=11	=11	=11	=11	=11	=11	=11	=11	=11	=11	=11	=11	=11	=11	=11	=11	=11	=11	=11	=11	=11	=11
*	*	*	*	*	*	*	*	*2\right	*	*	*	*	*	*	*	*	*	*	*	*	*	*2\right	*	*
8E/ 8EE/	8r	8E\	.	8r	.	8r	.	2ee\	.	2.r	.	2.r	.	2.r	.	.	2.r	.	.	2.r	.	2ee\	Bo-	.
8r	8g#/ 8e/ 8B/	8r	.	8e\	.	8g#/ 8B/	.	.	.	.	.	.	.	.	.	.	.	.	.	.	.	.	.	.
*rep	*rep	*rep	*	*rep	*	*rep	*	*	*	*	*	*	*	*	*	*	*	*	*	*	*	*	*	*
8E/ 8EE/	8r	8E\	.	8r	.	8r	.	.	.	.	.	.	.	.	.	.	.	.	.	.	.	.	.	.
8r	8g#/ 8e/ 8B/	8r	.	8e\	.	8g#/ 8B/	.	.	.	.	.	.	.	.	.	.	.	.	.	.	.	.	.	.
*Xrep	*Xrep	*Xrep	*	*Xrep	*	*Xrep	*	*	*	*	*	*	*	*	*	*	*	*	*	*	*	*	*	*
*rep	*rep	*rep	*	*rep	*	*rep	*	*	*	*	*	*	*	*	*	*	*	*	*	*	*	*	*	*
8E/ 8EE/	8r	8E\	.	8r	.	8r	.	4b\	.	.	.	.	.	.	.	.	.	.	.	.	.	4b\	-że	.
8r	8g#/ 8e/ 8B/	8r	.	8e\	.	8g#/ 8B/	.	.	.	.	.	.	.	.	.	.	.	.	.	.	.	.	.	.
*Xrep	*Xrep	*Xrep	*	*Xrep	*	*Xrep	*	*	*	*	*	*	*	*	*	*	*	*	*	*	*	*	*	*
=12	=12	=12	=12	=12	=12	=12	=12	=12	=12	=12	=12	=12	=12	=12	=12	=12	=12	=12	=12	=12	=12	=12	=12	=12
8E/ 8EE/	8r	8E\	.	8r	.	8r	.	(4.g#/	.	2.r	.	2.r	.	4r	.	.	2.r	.	.	(4.e/	tę	(4.g#/	tę	.
8r	8g#/L 8e/ 8B/	8r	.	8e\L	.	8g#/L 8B/	.	.	.	.	.	.	.	.	.	.	.	.	.	.	.	.	.	.
4E/ 4EE/	8g#/J 8e/ 8B/	4E\	.	8e\J	.	8g#/J 8B/	.	.	.	.	.	.	.	4r	.	.	.	.	.	.	.	.	.	.
.	8b/L 8g#/	.	.	8e'\L	.	(8g#/L	.	8b/L	.	.	.	.	.	.	.	.	.	.	.	8g#/L	.	8b/L	.	.
8A\L 8AA\	8a/ 8f#/	(<8AA/L	.	(8A\	.	8f#/	.	8a/	.	.	.	.	.	8A\	tę	.	.	.	.	8f#/J)	.	8a/J)	.	.
8A#X\J 8AA#X\	8g#/J 8e/	8AA#X/J	.	8A#X\J)	.	8e/J)	.	8g#/J)	.	.	.	.	.	8A#X\	o-	.	.	.	.	8e/	o-	8g#/	o-	.
=13	=13	=13	=13	=13	=13	=13	=13	=13	=13	=13	=13	=13	=13	=13	=13	=13	=13	=13	=13	=13	=13	=13	=13	=13
!LO:TX:t=P:problem=mixed beam	!	!LO:TX:t=P:problem=mixed beam	!	!	!	!	!	!	!	!	!	!	!	!	!	!	!	!	!	!	!	!	!	!
8BB/L	8g#/ 8e/	8BB/L)	.	8B/	.	8e/	.	8g#/	.	2.r	.	2.r	.	8B\	-fia-	.	2.r	.	.	8e/	-fia-	8g#/	-fia-	.
8B\	8r	8B\J	.	8r	.	8r	.	8r	.	.	.	.	.	8r	.	.	.	.	.	8r	.	8r	.	.
!	!	!LO:TX:t=P:problem=mixed beam	!	!	!	!	!	!	!	!	!	!	!	!	!	!	!	!	!	!	!	!	!	!
8BB/	2f#/ 2d#/	8BB/L	.	2B/	.	2d#/	.	2f#/	.	.	.	.	.	2BB/	-rę	.	.	.	.	2d#/	-rę	2f#/	-rę	.
8B\	.	8B\	.	.	.	.	.	.	.	.	.	.	.	.	.	.	.	.	.	.	.	.	.	.
8BB/	.	8BB/	.	.	.	.	.	.	.	.	.	.	.	.	.	.	.	.	.	.	.	.	.	.
8B\J	.	8B\J	.	.	.	.	.	.	.	.	.	.	.	.	.	.	.	.	.	.	.	.	.	.
=14	=14	=14	=14	=14	=14	=14	=14	=14	=14	=14	=14	=14	=14	=14	=14	=14	=14	=14	=14	=14	=14	=14	=14	=14
!	!	!LO:TX:b:i:t=pizz(icato)	!	!	!	!	!	!	!	!	!	!	!	!	!	!	!	!	!	!	!	!	!	!
8BB/	8r	8BB/	.	8r	.	8r	.	8r	.	2.r	.	2.r	.	2.r	.	.	2.r	.	.	2.r	.	8a/	któ-	.
8r	8a/ 8f#/ 8d#/ 8B/	8r	.	8f#\ 8B\	.	8d#/	.	8a/ 8B/	.	.	.	.	.	.	.	.	.	.	.	.	.	8f#/	-rą	.
*rep	*rep	*rep	*	*rep	*	*rep	*	*rep	*	*	*	*	*	*	*	*	*	*	*	*	*	*	*	*
8BB/	8r	8BB/	.	8r	.	8r	.	8r	.	.	.	.	.	.	.	.	.	.	.	.	.	4.b/	za	.
8r	8a/ 8f#/ 8d#/ 8B/	8r	.	8f#\ 8B\	.	8d#/	.	8a/ 8B/	.	.	.	.	.	.	.	.	.	.	.	.	.	.	.	.
*Xrep	*Xrep	*Xrep	*	*Xrep	*	*Xrep	*	*Xrep	*	*	*	*	*	*	*	*	*	*	*	*	*	*	*	*
*rep	*rep	*rep	*	*rep	*	*rep	*	*rep	*	*	*	*	*	*	*	*	*	*	*	*	*	*	*	*
8BB/	8r	8BB/	.	8r	.	8r	.	8r	.	.	.	.	.	.	.	.	.	.	.	.	.	.	.	.
8r	8a/ 8f#/ 8d#/ 8B/	8r	.	8f#\ 8B\	.	8d#/	.	8a/ 8B/	.	.	.	.	.	.	.	.	.	.	.	.	.	8a/	nas	.
*Xrep	*Xrep	*Xrep	*	*Xrep	*	*Xrep	*	*Xrep	*	*	*	*	*	*	*	*	*	*	*	*	*	*	*	*
!!LO:PB:g=original
=15	=15	=15	=15	=15	=15	=15	=15	=15	=15	=15	=15	=15	=15	=15	=15	=15	=15	=15	=15	=15	=15	=15	=15	=15
8E/ 8EE/	8r	8E\	.	8r	.	8r	.	8r	.	2.r	.	2.r	.	2.r	.	.	2.r	.	.	2.r	.	8g#/	ka-	.
8r	8g#/ 8e/ 8B/	8r	.	8e\ 8B\	.	8e/	.	8g#/ 8B/	.	.	.	.	.	.	.	.	.	.	.	.	.	8b\	-płan	.
*	*	*	*	*	*	*rep	*	*	*	*	*	*	*	*	*	*	*	*	*	*	*	*	*	*
8E/ 8EE/	8r	8E\	.	8r	.	8r	.	8r	.	.	.	.	.	.	.	.	.	.	.	.	.	4.ee\	świę-	.
8r	8g#/ 8e/ 8B/	8r	.	8e\ 8B\	.	8e/	.	8g#/ 8B/	.	.	.	.	.	.	.	.	.	.	.	.	.	.	.	.
*	*	*	*	*	*	*Xrep	*	*	*	*	*	*	*	*	*	*	*	*	*	*	*	*	*	*
*	*	*	*	*	*	*rep	*	*	*	*	*	*	*	*	*	*	*	*	*	*	*	*	*	*
8E/ 8EE/	8r	8E\	.	8r	.	8r	.	8r	.	.	.	.	.	.	.	.	.	.	.	.	.	.	.	.
8r	8g#/ 8e/ 8B#X/	8r	.	8e\	.	8e/	.	8g#/ 8B#X/	.	.	.	.	.	.	.	.	.	.	.	.	.	8b#X\	-ci	.
*	*	*	*	*	*	*Xrep	*	*	*	*	*	*	*	*	*	*	*	*	*	*	*	*	*	*
=16	=16	=16	=16	=16	=16	=16	=16	=16	=16	=16	=16	=16	=16	=16	=16	=16	=16	=16	=16	=16	=16	=16	=16	=16
8AA/	8r	8AA/	.	8r	.	8r	.	8r	.	2.r	.	2.r	.	2.r	.	.	2.r	.	.	2.r	.	8.dd#\	któ-	.
8r	8f#/ 8e/ 8c#/	8r	.	8c#\	.	8e/	.	8f#/ 8c#/	.	.	.	.	.	.	.	.	.	.	.	.	.	.	.	.
.	.	.	.	.	.	.	.	.	.	.	.	.	.	.	.	.	.	.	.	.	.	16cc#\	-rą	.
8BB/	8r	8BB/	.	8r	.	8r	.	8r	.	.	.	.	.	.	.	.	.	.	.	.	.	8.b\	za	.
8r	8a/ 8f#/ 8d#/ 8B/	8r	.	8d#\	.	8f#/	.	8a/ 8B/	.	.	.	.	.	.	.	.	.	.	.	.	.	.	.	.
.	.	.	.	.	.	.	.	.	.	.	.	.	.	.	.	.	.	.	.	.	.	16a\	nas	.
8BB/	8r	8BB/	.	8r	.	8r	.	8r	.	.	.	.	.	.	.	.	.	.	.	.	.	8.f#/	ka-	.
8r	8a/ 8f#/ 8d#/ 8B/	8r	.	8d#\	.	8f#/	.	8a/ 8B/	.	.	.	.	.	.	.	.	.	.	.	.	.	.	.	.
.	.	.	.	.	.	.	.	.	.	.	.	.	.	.	.	.	.	.	.	.	.	16b\	-łan	.
=17	=17	=17	=17	=17	=17	=17	=17	=17	=17	=17	=17	=17	=17	=17	=17	=17	=17	=17	=17	=17	=17	=17	=17	=17
8E/ 8EE/	8r	8E\	.	8r	.	8r	.	8r	.	2.r	.	2.r	.	4r	.	.	2.r	.	.	2.r	.	(8.e/L	świę-	.
8r	8g#/L 8e/ 8B/	8r	.	8e\L	.	8e/L	.	8g#/L 8B/	.	.	.	.	.	.	.	.	.	.	.	.	.	.	.	.
.	.	.	.	.	.	.	.	.	.	.	.	.	.	.	.	.	.	.	.	.	.	32g#/LL	.	.
.	.	.	.	.	.	.	.	.	.	.	.	.	.	.	.	.	.	.	.	.	.	32b/JJJ)	.	.
8E/ 8EE/	8g#/J 8e/ 8B/	8E\	.	8e\J	.	8e/J	.	8g#/J 8B/	.	.	.	.	.	8r	.	.	.	.	.	.	.	8ee\	-ci	.
!	!	!LO:TX:b:i:t=arco	!	!	!	!	!	!	!	!	!	!	!	!	!	!	!	!	!	!	!	!	!	!
8B\L	8r	8B\L	.	8r	.	8r	.	8r	.	.	.	.	.	(16B\LL	na-	.	.	.	.	.	.	8r	.	.
.	.	.	.	.	.	.	.	.	.	.	.	.	.	32c#\L	.	.	.	.	.	.	.	.	.	.
.	.	.	.	.	.	.	.	.	.	.	.	.	.	32B\JJJ)	.	.	.	.	.	.	.	.	.	.
8G#\	4r	8G#\	.	4r	.	4r	.	4r	.	.	.	.	.	8G#\	-szą	.	.	.	.	.	.	4r	.	.
8E\J	.	8E\J	.	.	.	.	.	.	.	.	.	.	.	8E\	.	.	.	.	.	.	.	.	.	.
=18	=18	=18	=18	=18	=18	=18	=18	=18	=18	=18	=18	=18	=18	=18	=18	=18	=18	=18	=18	=18	=18	=18	=18	=18
!	!	!	!	!	!	!	!	!LO:TX:a:i:t=arco	!	!	!	!	!	!	!	!	!	!	!	!	!	!	!	!
8BB/	8r	8BB/	.	8r	.	8r	.	8r	.	2.r	.	2.r	.	2BB/	wzma-	.	2A/	wzma-	.	2d#/	.	4.a/	Wzma-	.
8r	8a/ 8f#/ 8B/	8r	.	8f#\	.	8d#/	.	8a/ 8B/	.	.	.	.	.	.	.	.	.	.	.	.	.	.	.	.
*rep	*rep	*rep	*	*rep	*	*rep	*	*rep	*	*	*	*	*	*	*	*	*	*	*	*	*	*	*	*
8BB/	8r	8BB/	.	8r	.	8r	.	8r	.	.	.	.	.	.	.	.	.	.	.	.	.	.	.	.
8r	8a/ 8f#/ 8B/	8r	.	8f#\	.	8d#/	.	8a/ 8B/	.	.	.	.	.	.	.	.	.	.	.	.	.	8f#/	-cniaj	.
*Xrep	*Xrep	*Xrep	*	*Xrep	*	*Xrep	*	*Xrep	*	*	*	*	*	*	*	*	*	*	*	*	*	*	*	*
*rep	*rep	*rep	*	*rep	*	*rep	*	*rep	*	*	*	*	*	*	*	*	*	*	*	*	*	*	*	*
8BB/	8r	8BB/	.	8r	.	8r	.	8r	.	.	.	.	.	4BB/	-cniaj	.	4A/	-cniaj	.	4d#/	.	8b/	wie-	.
8r	8a/ 8f#/ 8B/	8r	.	8f#\	.	8d#/	.	8a/ 8B/	.	.	.	.	.	.	.	.	.	.	.	.	.	8a/	-cznie	.
*Xrep	*Xrep	*Xrep	*	*Xrep	*	*Xrep	*	*Xrep	*	*	*	*	*	*	*	*	*	*	*	*	*	*	*	*
=19	=19	=19	=19	=19	=19	=19	=19	=19	=19	=19	=19	=19	=19	=19	=19	=19	=19	=19	=19	=19	=19	=19	=19	=19
*	*^	*	*	*	*	*	*	*	*	*	*	*	*	*	*	*	*	*	*	*	*	*	*	*
8E/ 8EE/	8r	2ryy	8E\	.	8r	.	8r	.	8r	.	2.r	.	2.r	.	4E\	wia-	.	4G#/	wia-	.	4e/	.	8g#/	na-	.
8r	8g#/ 8e/ 8B/	.	8r	.	8e\	.	8e/	.	8g#/ 8B/	.	.	.	.	.	.	.	.	.	.	.	.	.	8b/	-szą	.
8E/ 8EE/	8r	.	8E\	.	8r	.	8r	.	8r	.	.	.	.	.	8E\	-rę	.	8G#/	-rę	.	8e/	.	8e/	wia-	.
8r	8g#/ 8e/ 8B/	.	8r	.	8e\	.	8e/	.	8g#/ 8B/	.	.	.	.	.	8r	.	.	8r	.	.	8r	.	8e/	-rę	.
!	!	!	!	!	!	!	!	!	!	!	!	!	!	!	!	!	!	!	!	!	!	!	!	!	!LO:DY:a
4G#\	8.b/L	4e\	4G#\	.	4G#/	.	8e/L	.	8b/L	.	.	.	.	.	4r	.	.	8.G#/	wspie-	.	8.e/	.	8.b/	wspi-	<
.	.	.	.	.	.	.	16r	.	16r	.	.	.	.	.	.	.	.	.	.	.	.	.	.	.	.
.	16b#X/Jk	.	.	.	.	.	16e/Jk	.	16b#X/Jk	.	.	.	.	.	.	.	.	16G#/	-raj	.	16e/	.	16b#X/	-raj	[[
!!LO:PB:g=original
=20	=20	=20	=20	=20	=20	=20	=20	=20	=20	=20	=20	=20	=20	=20	=20	=20	=20	=20	=20	=20	=20	=20	=20	=20	=20
!	!	!	!	!	!	!	!	!	!	!	!	!	!	!	!	!	!	!	!	!	!	!	!	!	!LO:DY:a
4.A\	4dd#/	4.e\	4.A\	.	4.A/	.	4.e/	.	(4dd#\	.	2.r	.	2.r	.	2.r	.	.	4A\	wia-	.	4e/	wia-	4dd#\	wszy-	>
.	8cc#/	.	.	.	.	.	.	.	8cc#\)	.	.	.	.	.	.	.	.	8A\	-rę	.	8e/	-rę	8cc#\	-stkie	]
8r	8r	8ryy	8r	.	8r	.	8r	.	8r	.	.	.	.	.	.	.	.	8r	.	.	8r	.	8r	.	.
!	!	!	!	!	!	!	!	!	!	!	!	!	!	!	!	!	!	!	!	!	!	!	!	!	!LO:DY:a
4F##X\	4a#X/	4e\	8F##X\L	.	8F##X/L	.	8e/L	.	8a#X/L	.	.	.	.	.	.	.	.	8.F##X/	wspie-	.	8.e/	wspie-	8.a#X/	do-	<
.	.	.	16r	.	16r	.	16r	.	16r	.	.	.	.	.	.	.	.	.	.	.	.	.	.	.	.
.	.	.	16F##\Jk	.	16F##/Jk	.	16e/Jk	.	16a#/Jk	.	.	.	.	.	.	.	.	16F##/	-raj	.	16e/	-raj	16a#/	-bre	[[
=21	=21	=21	=21	=21	=21	=21	=21	=21	=21	=21	=21	=21	=21	=21	=21	=21	=21	=21	=21	=21	=21	=21	=21	=21	=21
!	!	!	!	!	!	!	!	!	!	!	!	!	!	!	!	!	!	!	!	!	!	!	!	!	!LO:DY:a
4.G#\	4cc#/	4.e\	4.G#\	.	4.G#^/	.	4.e/	.	(4cc#\	.	2.r	.	2.r	.	2.r	.	.	4G#/	wszy-	.	4e/	wszy-	4cc#\	chę-	>
.	8b/	.	.	.	.	.	.	.	8b\)	.	.	.	.	.	.	.	.	8G#/	-stkie	.	8e/	-stkie	8b\	-ci	]
8r	8r	8ryy	8r	.	8r	.	8r	.	8r	.	.	.	.	.	.	.	.	8r	.	.	8r	.	8r	.	.
4G#\ 4C#\	8ee/L	4e\	4C#/	.	4G#/	.	4e/	.	8ee/L	.	.	.	.	.	.	.	.	4r	.	.	4r	.	8ee\	Wspie-	.
.	8g#/J	.	.	.	.	.	.	.	8g#/J	.	.	.	.	.	.	.	.	.	.	.	.	.	8g#/	-raj	.
*	*v	*v	*	*	*	*	*	*	*	*	*	*	*	*	*	*	*	*	*	*	*	*	*	*	*
=22	=22	=22	=22	=22	=22	=22	=22	=22	=22	=22	=22	=22	=22	=22	=22	=22	=22	=22	=22	=22	=22	=22	=22	=22
8A\ 8AA\	8r	8AA/	.	8A/L	.	8r	.	8r	.	2.r	.	2.r	.	2.r	.	.	2.r	.	.	2.r	.	4f#/	wszy-	.
8r	8f#/ 8e/	8r	.	8c#/J	.	8e/	.	8f#/	.	.	.	.	.	.	.	.	.	.	.	.	.	.	.	.
8A\ 8AA\	8r	8AA/	.	8r	.	8r	.	8r	.	.	.	.	.	.	.	.	.	.	.	.	.	8f#/	-stkie	.
8r	8f#/ 8e/	8r	.	8c#\	.	8e/	.	8f#/	.	.	.	.	.	.	.	.	.	.	.	.	.	16r	.	.
.	.	.	.	.	.	.	.	.	.	.	.	.	.	.	.	.	.	.	.	.	.	(16cc#/KL	do-	.
4B\ 4BB\	8r	4BB/	.	8r	.	8r	.	8r	.	.	.	.	.	.	.	.	.	.	.	.	.	8.b/J)	.	.
.	8a/ 8d#/	.	.	8d#\	.	8f#/	.	8a/	.	.	.	.	.	.	.	.	.	.	.	.	.	.	.	.
.	.	.	.	.	.	.	.	.	.	.	.	.	.	.	.	.	.	.	.	.	.	16a/	-bre	.
=23	=23	=23	=23	=23	=23	=23	=23	=23	=23	=23	=23	=23	=23	=23	=23	=23	=23	=23	=23	=23	=23	=23	=23	=23
8E/ 8EE/	8r	8E\	.	8r	.	8r	.	8r	.	2.r	.	2.r	.	4r	.	.	4r	.	.	4r	.	(8.f##X/L	chę-	.
8r	8g#/ 8e/ 8B/	8r	.	8B/	.	8e/	.	8g#/	.	.	.	.	.	.	.	.	.	.	.	.	.	.	.	.
.	.	.	.	.	.	.	.	.	.	.	.	.	.	.	.	.	.	.	.	.	.	16g#/Jk)	.	.
*	*	*	*	*	*	*rep	*	*rep	*	*	*	*	*	*	*	*	*	*	*	*	*	*	*	*
8E/ 8EE/	8r	8E\	.	8r	.	8r	.	8r	.	.	.	.	.	4r	.	.	4r	.	.	4r	.	4g#/	-ci	.
8r	8g#/ 8e/ 8B/	8r	.	8B/	.	8e/	.	8g#/	.	.	.	.	.	.	.	.	.	.	.	.	.	.	.	.
*	*	*	*	*	*	*Xrep	*	*Xrep	*	*	*	*	*	*	*	*	*	*	*	*	*	*	*	*
!	!	!	!	!	!	!	!	!	!	!	!	!	!	!	!	!LO:DY:a	!	!	!	!	!	!	!	!LO:DY:a
.	.	.	.	.	.	.	.	.	.	.	.	.	.	.	.	f	.	.	.	.	.	.	.	f
*	*	*	*	*	*	*rep	*	*rep	*	*	*	*	*	*	*	*	*	*	*	*	*	*	*	*
8C#/ 8CC#/	8r	8C#/	.	8r	.	8r	.	8r	.	.	.	.	.	8.C#/	Wspie-	.	8.G#/	.	.	8.e/L	.	8.ee\	Wspie-	.
8r	8g#/ 8e/ 8c#/	8r	.	8c#/	.	8e/	.	8g#/	.	.	.	.	.	.	.	.	.	.	.	.	.	.	.	.
.	.	.	.	.	.	.	.	.	.	.	.	.	.	16C#/	-raj	.	16G#/	.	.	16e/Jk	.	16g#/	-raj	.
*	*	*	*	*	*	*Xrep	*	*Xrep	*	*	*	*	*	*	*	*	*	*	*	*	*	*	*	*
=24	=24	=24	=24	=24	=24	=24	=24	=24	=24	=24	=24	=24	=24	=24	=24	=24	=24	=24	=24	=24	=24	=24	=24	=24
!	!	!	!	!	!	!	!	!	!	!	!	!	!	!	!	!	!	!	!	!	!	!	!	!LO:DY:a
8AA/ 8AAA/	8r	8AA/	.	8r	.	8r	.	8r	.	2.r	.	2.r	.	4AA/	wszy-	.	4A/	.	.	4c#/	.	(>16f#/LL	wszy-	<
.	.	.	.	.	.	.	.	.	.	.	.	.	.	.	.	.	.	.	.	.	.	16e#X/	.	.
8r	8f#/ 8e/ 8c#/	8r	.	8c#\	.	8e/	.	8f#/	.	.	.	.	.	.	.	.	.	.	.	.	.	16f#/	.	.
.	.	.	.	.	.	.	.	.	.	.	.	.	.	.	.	.	.	.	.	.	.	16g#/JJ)	.	.
8AA/ 8AAA/	8r	8AA/	.	8r	.	8r	.	8r	.	.	.	.	.	8BB/	-stkie	.	8A/	.	.	8c#/	.	(>16a/LL	-stkie	.
.	.	.	.	.	.	.	.	.	.	.	.	.	.	.	.	.	.	.	.	.	.	16g#/	.	.
8r	8f#/ 8e/ 8c#/	8r	.	8c#\	.	8e/	.	8f#/	.	.	.	.	.	8r	.	.	8r	.	.	8r	.	16a/	.	.
.	.	.	.	.	.	.	.	.	.	.	.	.	.	.	.	.	.	.	.	.	.	16b/JJ)	.	.
4AA#X/ 4AAA#X/	8r	4AA#X/	.	4c#^<\	.	4e/	.	4gn^/	.	.	.	.	.	4r	.	.	4r	.	.	4r	.	(>16cc#\LL	do-	.
.	.	.	.	.	.	.	.	.	.	.	.	.	.	.	.	.	.	.	.	.	.	16dd#\	.	.
.	8gn/ 8e/ 8c#/	.	.	.	.	.	.	.	.	.	.	.	.	.	.	.	.	.	.	.	.	16ee\JJ)	.	.
.	.	.	.	.	.	.	.	.	.	.	.	.	.	.	.	.	.	.	.	.	.	16cc#\|	-bre	[
!!LO:PB:g=original
=25	=25	=25	=25	=25	=25	=25	=25	=25	=25	=25	=25	=25	=25	=25	=25	=25	=25	=25	=25	=25	=25	=25	=25	=25
!	!	!	!	!	!	!	!	!	!	!	!	!	!	!	!	!LO:DY:rj:a	!	!	!	!	!	!	!	!LO:DY:rj:a
8BB/ 8BBB/	8r	8BB/	.	8B\L	.	8e/L	.	16g#X\LL	.	2.r	.	2.r	.	2BB/	.	f	2G#/	.	.	2e/	do-	8.b\	do-	f
.	.	.	.	.	.	.	.	16b\	.	.	.	.	.	.	.	.	.	.	.	.	.	.	.	.
8r	8g#X/ 8e/ 8B/	8r	.	8e\J	.	8g#/J 8B/	.	16ee\	.	.	.	.	.	.	.	.	.	.	.	.	.	.	.	.
.	.	.	.	.	.	.	.	16b\JJ	.	.	.	.	.	.	.	.	.	.	.	.	.	16ee\	-bre	.
8BB/ 8BBB/	8r	8BB/	.	8r	.	8r	.	16gg#\LL	.	.	.	.	.	.	.	.	.	.	.	.	.	4gg#\	do-	.
.	.	.	.	.	.	.	.	16ee\	.	.	.	.	.	.	.	.	.	.	.	.	.	.	.	.
8r	8g#/ 8e/ 8B/	8r	.	8e\	.	8g#/ 8B/	.	16b\	.	.	.	.	.	.	.	.	.	.	.	.	.	.	.	.
.	.	.	.	.	.	.	.	16g#\JJ	.	.	.	.	.	.	.	.	.	.	.	.	.	.	.	.
8BB/ 8BBB/	8r	8BB/	.	8r	.	8r	.	16b/LL	.	.	.	.	.	4BB/	.	.	4A/	.	.	4d#/	-bre	4ff#\	-bre	.
.	.	.	.	.	.	.	.	16a/	.	.	.	.	.	.	.	.	.	.	.	.	.	.	.	.
8r	8a/ 8f#/ 8d#/ 8B/	8r	.	8f#\	.	8a/ 8B/	.	16f#/	.	.	.	.	.	.	.	.	.	.	.	.	.	.	.	.
.	.	.	.	.	.	.	.	16d#/JJ	.	.	.	.	.	.	.	.	.	.	.	.	.	.	.	.
=26	=26	=26	=26	=26	=26	=26	=26	=26	=26	=26	=26	=26	=26	=26	=26	=26	=26	=26	=26	=26	=26	=26	=26	=26
8E/ 8EE/	8r	8E\	.	8r	.	8r	.	16e/LL	.	4r	.	4r	.	4E\	.	.	4G#/	.	.	4e/	chę-	(16ee\LL	chę-	.
.	.	.	.	.	.	.	.	16g#/	.	.	.	.	.	.	.	.	.	.	.	.	.	16b\	.	.
8r	8g#/L 8e/ 8B/	8r	.	8e\L	.	8g#/L 8B/	.	16b/	.	.	.	.	.	.	.	.	.	.	.	.	.	16g#\	.	.
.	.	.	.	.	.	.	.	16g#/JJ	.	.	.	.	.	.	.	.	.	.	.	.	.	16b\JJ)	.	.
8E/ 8EE/	8g#/J 8e/ 8B/	8E\	.	8e\J	.	8g#/J 8B/	.	8e/	.	4r	.	4r	.	8E\	.	.	8G#/	.	.	8e/	-ci	8e/	-ci	.
8r	8r	8r	.	8r	.	8r	.	8r	.	.	.	.	.	8r	.	.	8r	.	.	8r	.	8r	.	.
=|:	=|:	=|:	=|:	=|:	=|:	=|:	=|:	=|:	=|:	=|:	=|:	=|:	=|:	=|:	=|:	=|:	=|:	=|:	=|:	=|:	=|:	=|:	=|:	=|:
*>B	*	*	*	*	*	*	*	*	*	*	*	*	*	*	*	*	*	*	*	*	*	*	*	*
!	!	!	!LO:DY:rj:a	!	!	!	!LO:DY:a	!	!	!	!	!	!	!	!	!	!	!	!	!	!	!	!	!
8G#\L	8g#/L	(8G#\L	f	4r	.	8g#/L	f	4r	.	4r	.	4r	.	8G#\	.	.	4r	.	.	8g#/	Kę-	4r	.	.
8F#\J	8f#/J	8F#\J)	.	.	.	8f#/J	.	.	.	.	.	.	.	8F#\	.	.	.	.	.	8f#/	-dy	.	.	.
=27	=27	=27	=27	=27	=27	=27	=27	=27	=27	=27	=27	=27	=27	=27	=27	=27	=27	=27	=27	=27	=27	=27	=27	=27
4.E\	4.e/	4.E\	.	2.r	.	4.e/	.	2.r	.	2.r	.	2.r	.	4.E\	.	.	2.r	.	.	4.e/	Two-	2.r	.	.
8D#\	8d#/	8D#\	.	.	.	8d#/	.	.	.	.	.	.	.	8D#\	.	.	.	.	.	8d#/	-je	.	.	.
*Xtuplet	*Xtuplet	*	*	*	*	*	*	*	*	*	*	*	*	*	*	*	*	*	*	*	*	*	*	*
!	!	!LO:TUP:a:problem=klamra łukowa	!	!	!	!LO:TUP:b:problem=klamra łukowa	!	!	!	!	!	!	!	!	!	!	!	!	!	!	!	!	!	!
12E\L	12e/L	12E\L	.	.	.	(12e/L	.	.	.	.	.	.	.	12E\L	.	.	.	.	.	12e/L	słoń-	.	.	.
12G#\	12g#/	12G#\	.	.	.	12g#/)	.	.	.	.	.	.	.	12G#\J	.	.	.	.	.	12g#/J	.	.	.	.
12F#\J	12f#/J	12F#'\J	.	.	.	12f#'/J	.	.	.	.	.	.	.	12F#\	.	.	.	.	.	12f#/	-ce	.	.	.
=28	=28	=28	=28	=28	=28	=28	=28	=28	=28	=28	=28	=28	=28	=28	=28	=28	=28	=28	=28	=28	=28	=28	=28	=28
*	*^	*	*	*	*	*	*	*	*	*	*	*	*	*	*	*	*	*	*	*	*	*	*	*
4D#/	4d#/	2ryy	4D#/	.	4r	.	4d#/	.	4r	.	2.r	.	2.r	.	4D#/	.	.	4r	.	.	4d#/	świe-	4r	.	.
4BB/	4B/	.	4BB/	.	4r	.	4B/	.	4r	.	.	.	.	.	4BB/	.	.	4r	.	.	4B/	-ci	4r	.	.
!	!	!	!	!	!	!	!	!	!	!	!	!	!	!	!	!	!	!	!	!LO:DY:b	!	!	!	!	!LO:DY:a
.	.	.	.	.	.	.	.	.	.	.	.	.	.	.	.	.	.	.	.	f	.	.	.	.	f
!	!	!	!	!	!	!	!	!	!	!LO:DY:b	!	!	!	!	!	!	!	!	!	!	!	!	!	!	!
.	.	.	.	p	.	.	.	.	.	.	.	.	.	.	.	.	.	.	.	.	.	.	.	.	.
4BB/	8.b/L	4d#\ 4B\	8.BB/L	.	8.B/L	.	8.d#/L	.	8.b/L	p	.	.	.	.	8.BB/	.	.	8.B\	.	.	8.d#/	.	8.b/	Tam	.
.	16a/Jk 16f#/	.	16BB/Jk	.	16d#/Jk	.	16f#/Jk	.	16a/Jk	.	.	.	.	.	16BB/	.	.	16d#\	.	.	16f#/	.	16a/	gdzie	.
*	*v	*v	*	*	*	*	*	*	*	*	*	*	*	*	*	*	*	*	*	*	*	*	*	*	*
=29	=29	=29	=29	=29	=29	=29	=29	=29	=29	=29	=29	=29	=29	=29	=29	=29	=29	=29	=29	=29	=29	=29	=29	=29
!	!	!	!	!	!LO:HP:b	!	!	!	!LO:DY:a	!	!	!	!	!	!	!	!	!	!	!	!	!	!	!
8E/ 8EE/	8r	8E\	.	4.e\	<	4.e/	.	4.gn/	<	2.r	.	2.r	.	4.E\	.	.	4.e\	.	.	4.e/	.	4.gn/	ludz-	.
8r	8gn/ 8e/ 8B/	8r	.	.	.	.	.	.	.	.	.	.	.	.	.	.	.	.	.	.	.	.	.	.
8E/ 8EE/	8r	8E\	.	.	.	.	.	.	.	.	.	.	.	.	.	.	.	.	.	.	.	.	.	.
8r	8g/ 8e/ 8B/	8r	.	8e\L	.	8e/L	.	8e/L	.	.	.	.	.	8E\	.	.	8Gn/	.	.	8e/	.	8e/	-kie	.
4Cn/ 4CCn/	8r	4Cn/	.	8e\	.	8e/	.	8g/	.	.	.	.	.	8Cn/	.	.	8G/	.	.	8e/	.	8g/	ser-	.
.	8a/ 8f#/ 8e/	.	.	8f#\J	[[	8e/J	.	8a/J	[[	.	.	.	.	8C/	.	.	8G/	.	.	8e/	.	8a/	-ca	.
!!LO:PB:g=original
=30	=30	=30	=30	=30	=30	=30	=30	=30	=30	=30	=30	=30	=30	=30	=30	=30	=30	=30	=30	=30	=30	=30	=30	=30
8BB/ 8BBB/	8r	(4BB/	.	4.f#\ 4.B\	.	4.d#/	.	(4b/	.	4r	.	4r	.	4BB/	.	.	4B\	.	.	4d#/	.	4b/	bi-	.
8r	8b/ 8f#/ 8d#/	.	.	.	.	.	.	.	.	.	.	.	.	.	.	.	.	.	.	.	.	.	.	.
*	*rep	*	*	*	*	*	*	*	*	*	*	*	*	*	*	*	*	*	*	*	*	*	*	*
8B\ 8BB\	8r	8B\)	.	.	.	.	.	8f#/)	.	4r	.	4r	.	8BB/	.	.	8B\	.	.	8d#/	.	8f#/	-ią	.
8r	8b/ 8f#/ 8d#/	8r	.	8r	.	8r	.	8r	.	.	.	.	.	8r	.	.	8r	.	.	8r	.	8r	.	.
*	*Xrep	*	*	*	*	*	*	*	*	*	*	*	*	*	*	*	*	*	*	*	*	*	*	*
*	*rep	*	*	*	*	*	*	*	*	*	*	*	*	*	*	*	*	*	*	*	*	*	*	*
!	!	!	!	!	!	!	!	!	!	!	!	!	!LO:DY:a	!	!	!	!	!	!	!	!	!LO:TX:a:i:t=tutti	!	!
8B\ 8BB\	8r	8.B\L	.	8.B/L	.	8.d#/L	.	8.b\L	.	8.B\	Niech	8.b/ 8.d#/	<	8.B\	.	.	8.B\	.	.	8.d#/	.	8.b\	Niech	.
8r	8b/ 8f#/ 8d#/	.	.	.	.	.	.	.	.	.	.	.	.	.	.	.	.	.	.	.	.	.	.	.
!	!	!	!	!	!	!	!	!	!	!	!	!	!	!	!	!	!	!	!	!	!	!	!	!LO:DY:a
.	.	16B\Jk	.	16d#/Jk	.	16f#/Jk	.	16b\Jk	.	16d#\ 16B\	Cię	16b/ 16f#/	[[	16B\	.	.	16d#\	.	.	16f#/	.	16b\	Cię	f
*	*Xrep	*	*	*	*	*	*	*	*	*	*	*	*	*	*	*	*	*	*	*	*	*	*	*
=31	=31	=31	=31	=31	=31	=31	=31	=31	=31	=31	=31	=31	=31	=31	=31	=31	=31	=31	=31	=31	=31	=31	=31	=31
!	!	!	!LO:DY:rj:a	!	!	!	!	!	!	!	!	!	!LO:DY:rj:a	!	!	!LO:DY:rj	!	!	!	!	!	!	!	!
8A/ 8AA/	8r	(4A^<\	f	(4d#\	.	(4f#/	.	4ccn\	f >	4d#\ 4A\	zna-	4ccn/ 4f#/	f	4A\	.	f	4d#\	.	.	4f#/	.	4ccn\	zna-	.
8r	8ccn/ 8f#/ 8d#/	.	.	.	.	.	.	.	.	.	.	.	.	.	.	.	.	.	.	.	.	.	.	.
8Gn/ 8GGn/	8r	8Gn\)	.	8e\)	.	8gn/)	.	8b\	]	8e\ 8Gn\	-ią	8b/ 8gn/	.	8Gn\	.	.	8e\	.	.	8gn/	.	8b\	-ią	.
8r	8b/ 8e/	8r	.	8r	.	8r	.	8r	.	8r	.	8r	.	8r	.	.	8r	.	.	8r	.	8r	.	.
8F#/ 8FF#/	8r	8.F#\L	.	8.B/L	.	8.d#/L	.	8.b/L	.	8.B\ 8.F#\	Two-	8.b/ 8.d#/	.	8.F#\	.	.	8.B\	.	.	8.d#/	.	8.b/	Two-	.
8r	8a/ 8d#/ 8B/	.	.	.	.	.	.	.	.	.	.	.	.	.	.	.	.	.	.	.	.	.	.	.
.	.	16F#\Jk	.	16B/Jk	.	16d#/Jk	.	16a/Jk	.	16B\ 16F#\	-je	16a/ 16d#/	.	16F#\	.	.	16B\	.	.	16d#/	.	16a/	-je	.
=32	=32	=32	=32	=32	=32	=32	=32	=32	=32	=32	=32	=32	=32	=32	=32	=32	=32	=32	=32	=32	=32	=32	=32	=32
8E/ 8EE/	8r	4.E\	.	4.B/	.	8.d#/L	.	8.f#/L	.	4B\ 4E\	dzie-	(8.f#/L 8.d#/	.	4E\	.	.	4B\	.	.	(8.d#/L	.	(8.f#/L	dzie-	.
8r	8gn/ 8e/ 8B/	.	.	.	.	.	.	.	.	.	.	.	.	.	.	.	.	.	.	.	.	.	.	.
.	.	.	.	.	.	16e/Jk	.	16gn/Jk	.	.	.	16gn/Jk 16e/)	.	.	.	.	.	.	.	16e/Jk)	.	16gn/Jk)	.	.
8E/ 8EE/	8r	.	.	.	.	8e/	.	8g/	.	8B\ 8E\	-ci	8g/ 8e/	.	8E\	.	.	8B\	.	.	8e/	.	8g/	-ci	.
8r	8g/ 8e/ 8B/	8r	.	8r	.	8r	.	8r	.	8r	.	8r	.	8r	.	.	8r	.	.	8r	.	8r	.	.
!	!	!	!	!	!	!	!	!LO:TX:t=P:problem=mixed beam	!	!	!	!	!	!	!	!	!	!	!	!	!	!	!	!
8Cn/ 8CCn/	8r	8.Cn/L	.	8.cn/L	.	8.e/L	.	8.ee\L	.	8.cn\ 8.Cn\	Niech	8.ee/ 8.e/	.	8.Cn/	.	.	8.cn\	.	.	8.e/	.	8.ee\	niech	.
8r	8g/ 8e/ 8cn/	.	.	.	.	.	.	.	.	.	.	.	.	.	.	.	.	.	.	.	.	.	.	.
.	.	16C/Jk	.	16c/Jk	.	16e/Jk	.	16e/Jk	.	16c\ 16C\	jak	16e/	.	16C/	.	.	16c\	.	.	16e/	.	16e/	jak	.
=33	=33	=33	=33	=33	=33	=33	=33	=33	=33	=33	=33	=33	=33	=33	=33	=33	=33	=33	=33	=33	=33	=33	=33	=33
*	*	*	*	*	*	*	*	*	*	*	*	*^	*	*	*	*	*	*	*	*	*	*	*	*
8AA/ 8AAA/	8r	8AA/	.	2cn/	.	2e/	.	(4f#/	.	4cn\ 4AA\	bra-	8.f#/L	4e\	.	4AA/	.	.	4cn\	.	.	4e/	.	8.f#/L	bra-	.
8r	8f#/ 8e/ 8cn/	8r	.	.	.	.	.	.	.	.	.	.	.	.	.	.	.	.	.	.	.	.	.	.	.
.	.	.	.	.	.	.	.	.	.	.	.	16ccn/Jk	.	.	.	.	.	.	.	.	.	.	16ccn/Jk	.	.
8AA/ 8AAA/	8r	8AA/	.	.	.	.	.	4ccn\)	.	4c\ 4AA\	-cia	4cc/	4e\	.	4AA/	.	.	4c\	.	.	4e/	.	4cc\	-cia	.
8r	8f#/ 8e/ 8c/	8r	.	.	.	.	.	.	.	.	.	.	.	.	.	.	.	.	.	.	.	.	.	.	.
4AA#X/ 4AAA#X/	8r	8.AA#X/L	.	8.c#X/L	.	8.e/L	.	8.f#/L	.	8.c#X\ 8.AA#X\	w-zgo	8.f#/	8.e\	.	8.AA#X/	.	.	8.c#X\	.	.	8.e/	.	8.f#/	w zgo-	.
.	8f#/ 8e/ 8c#X/	.	.	.	.	.	.	.	.	.	.	.	.	.	.	.	.	.	.	.	.	.	.	.	.
.	.	16AA#/Jk	.	16c#/Jk	.	16e/Jk	.	16f#/Jk	.	16c#\ 16AA#\	-dzie	16f#/	16e\	.	16AA#/	.	.	16c#\	.	.	16e/	.	16f#/	-dzie	.
=34	=34	=34	=34	=34	=34	=34	=34	=34	=34	=34	=34	=34	=34	=34	=34	=34	=34	=34	=34	=34	=34	=34	=34	=34	=34
8BB/ 8BBB/	8r	8BB/	.	4.B/	.	4.d#/	.	(8.f#/L	.	4B\ 4BB\	ży-	8.f#/L	4d#\	.	4BB/	.	.	4B\	.	.	4d#/	.	(8.f#/L	ży-	.
8r	8f#/L 8d#/ 8B/	8r	.	.	.	.	.	.	.	.	.	.	.	.	.	.	.	.	.	.	.	.	.	.	.
.	.	.	.	.	.	.	.	16b/Jk)	.	.	.	16b/Jk	.	.	.	.	.	.	.	.	.	.	16b/Jk)	.	.
8BB/ 8BBB/	8f#/J 8d#/ 8B/	8BB/	.	.	.	.	.	4b/	.	4B\ 4BB\	-ią	4b/	4d#\	.	4BB/	.	.	4B\	.	.	4d#/	.	4b/	-ią	.
8r	8a/L 8f#/	8r	.	(8f#\L	.	(8a/L	.	.	.	.	.	.	.	.	.	.	.	.	.	.	.	.	.	.	.
4r	8g#/ 8e/	4r	.	8e\	.	8g#/	.	4r	.	4r	.	4re	4rdd	.	4r	.	.	4r	.	.	4r	.	4r	.	.
.	8f#/J 8B/	.	.	8B\J)	.	8f#/J)	.	.	.	.	.	.	.	.	.	.	.	.	.	.	.	.	.	.	.
*	*	*	*	*	*	*	*	*	*	*	*	*v	*v	*	*	*	*	*	*	*	*	*	*	*	*
!!LO:PB:g=original
=35	=35	=35	=35	=35	=35	=35	=35	=35	=35	=35	=35	=35	=35	=35	=35	=35	=35	=35	=35	=35	=35	=35	=35	=35
!	!	!	!LO:DY:rj:a	!	!LO:DY:rj	!	!	!	!	!	!	!	!	!	!	!	!	!	!	!	!	!LO:TX:a:i:t=Solo dolce	!	!
8E/ 8EE/	8r	8E\	p	8e\L	p	8g#/L	p	(4.bb\ 4.b\	.	2.ryy	.	2.ryy	.	2.r	.	.	2.r	.	.	2.r	.	(4.b/	Któ-	.
8r	8g#/ 8e/ 8B/	8r	.	8e\J	.	8g#/J	.	.	.	.	.	.	.	.	.	.	.	.	.	.	.	.	.	.
*rep	*rep	*	*	*	*	*	*	*	*	*	*	*	*	*	*	*	*	*	*	*	*	*	*	*
8E/ 8EE/	8r	8E\	.	8r	.	8r	.	.	.	.	.	.	.	.	.	.	.	.	.	.	.	.	.	.
8r	8g#/ 8e/ 8B/	8r	.	8e\	.	8g#/	.	16ccc#\LL 16cc#\	.	.	.	.	.	.	.	.	.	.	.	.	.	16cc#/LL	.	.
.	.	.	.	.	.	.	.	16bb\JJ 16b\	.	.	.	.	.	.	.	.	.	.	.	.	.	16b/JJ)	.	.
*Xrep	*Xrep	*	*	*	*	*	*	*	*	*	*	*	*	*	*	*	*	*	*	*	*	*	*	*
*rep	*rep	*	*	*	*	*	*	*	*	*	*	*	*	*	*	*	*	*	*	*	*	*	*	*
8E/ 8EE/	8r	8E\	.	8r	.	8r	.	8gg#\L 8g#\)	.	.	.	.	.	.	.	.	.	.	.	.	.	(8g#/L	-rzy	.
8r	8g#/ 8e/ 8B/	8r	.	8B/	.	8g#/	.	8ee\J 8e'\	.	.	.	.	.	.	.	.	.	.	.	.	.	8e/J)	.	.
*Xrep	*Xrep	*	*	*	*	*	*	*	*	*	*	*	*	*	*	*	*	*	*	*	*	*	*	*
=36	=36	=36	=36	=36	=36	=36	=36	=36	=36	=36	=36	=36	=36	=36	=36	=36	=36	=36	=36	=36	=36	=36	=36	=36
!	!	!	!	!	!	!	!	!	!	!	!	!	!	!	!	!	!	!	!	!LO:TX:b:i:t=solo	!	!	!	!
8E/ 8EE/	8r	8E\	.	8r	.	8r	.	(4.ff#\	.	2.ryy	.	2.ryy	.	2.r	.	.	2.r	.	.	4r	.	(4.ff#\	są	.
8r	8g#/ 8e/ 8B/	8r	.	8B/	.	8g#/	.	.	.	.	.	.	.	.	.	.	.	.	.	.	.	.	.	.
*rep	*rep	*	*	*	*	*rep	*	*	*	*	*	*	*	*	*	*	*	*	*	*	*	*	*	*
8E/ 8EE/	8r	8E\	.	8r	.	8r	.	.	.	.	.	.	.	.	.	.	.	.	.	4r	.	.	.	.
8r	8g#/ 8e/ 8B/	8r	.	8B/	.	8g#/	.	8ee\)	.	.	.	.	.	.	.	.	.	.	.	.	.	8ee\)	.	.
*Xrep	*Xrep	*	*	*	*	*Xrep	*	*	*	*	*	*	*	*	*	*	*	*	*	*	*	*	*	*
*rep	*rep	*	*	*	*	*rep	*	*	*	*	*	*	*	*	*	*	*	*	*	*	*	*	*	*
8E/ 8EE/	8r	8E\	.	8r	.	8r	.	(8.b/L	.	.	.	.	.	.	.	.	.	.	.	(8.g#/L	są	(8.b/L	iuż	.
8r	8g#/ 8e/ 8B/	8r	.	8e\	.	8g#/	.	.	.	.	.	.	.	.	.	.	.	.	.	.	.	.	.	.
.	.	.	.	.	.	.	.	16a/Jk)	.	.	.	.	.	.	.	.	.	.	.	16f#/Jk)	.	16a/Jk)	.	.
*Xrep	*Xrep	*	*	*	*	*Xrep	*	*	*	*	*	*	*	*	*	*	*	*	*	*	*	*	*	*
=37	=37	=37	=37	=37	=37	=37	=37	=37	=37	=37	=37	=37	=37	=37	=37	=37	=37	=37	=37	=37	=37	=37	=37	=37
8E/ 8EE/	8r	8E\	.	8r	.	8r	.	4.g#/	.	2.ryy	.	2.ryy	.	4r	.	.	2.r	.	.	(4.e/	przy	(>4.g#/	przy	.
8r	8g#/L 8e/ 8B/	8r	.	8e\L 8B\	.	8g#/L	.	.	.	.	.	.	.	.	.	.	.	.	.	.	.	.	.	.
!	!	!	!	!	!	!	!	!	!	!	!	!	!	!LO:TX:a:i:t=Solo	!	!	!	!	!	!	!	!	!	!
4E/ 4EE/	8g#/J 8e/ 8B/	(4E\	.	8e\J 8B\	.	8g#/J	.	.	.	.	.	.	.	4r	.	.	.	.	.	.	.	.	.	.
.	8b/L 8g#/	.	.	(8e/L	.	(8g#/L	.	(8b/L	.	.	.	.	.	.	.	.	.	.	.	(8g#/L	.	(>8b/L	.	.
8A\L 8AA\	8a/ 8f#/	8A\L	.	8A/	.	8f#/	.	8a/	.	.	.	.	.	8A\	przy	.	.	.	.	8f#/J))	.	8a/J)	.	.
8A#X\J 8AA#X\	8g#/J 8e/	8A#X\J	.	8A#X/J)	.	8e/J	.	8g#/J)	.	.	.	.	.	8A#X\	Twym	.	.	.	.	8e/	Twym	8g#/)	Twym	.
=38	=38	=38	=38	=38	=38	=38	=38	=38	=38	=38	=38	=38	=38	=38	=38	=38	=38	=38	=38	=38	=38	=38	=38	=38
!LO:TX:t=P:problem=mixed beam	!	!	!	!	!	!	!	!	!	!	!	!	!	!	!	!	!	!	!	!	!	!	!	!
8BB/L	8g#/ 8e/	8B\L)	.	8B/	.	8e/)	.	8g#/	.	2.ryy	.	2.ryy	.	8B\	tro-	.	2.r	.	.	8e/	tro-	8g#/	tro-	.
8B\J	8r	8B\J	.	8r	.	8r	.	8r	.	.	.	.	.	8r	.	.	.	.	.	8r	.	8r	.	.
!LO:TX:t=P:problem=mixed beam	!	!	!	!	!	!	!	!	!	!	!	!	!	!	!	!	!	!	!	!	!	!	!	!
*rep	*	*	*	*	*	*	*	*	*	*	*	*	*	*	*	*	*	*	*	*	*	*	*	*
8BB/L	2f#/ 2d#/	8BB/L	.	2B/	.	2d#/	.	2f#/	.	.	.	.	.	2BB/	-nie	.	.	.	.	2d#/	-nie	2f#/	-nie	.
8B\J	.	8B\J	.	.	.	.	.	.	.	.	.	.	.	.	.	.	.	.	.	.	.	.	.	.
*Xrep	*	*	*	*	*	*	*	*	*	*	*	*	*	*	*	*	*	*	*	*	*	*	*	*
*rep	*	*	*	*	*	*	*	*	*	*	*	*	*	*	*	*	*	*	*	*	*	*	*	*
!LO:TX:t=P:problem=mixed beam	!	!	!	!	!	!	!	!	!	!	!	!	!	!	!	!	!	!	!	!	!	!	!	!
8BB/L	.	8BB/L	.	.	.	.	.	.	.	.	.	.	.	.	.	.	.	.	.	.	.	.	.	.
8B\J	.	8B\J	.	.	.	.	.	.	.	.	.	.	.	.	.	.	.	.	.	.	.	.	.	.
*Xrep	*	*	*	*	*	*	*	*	*	*	*	*	*	*	*	*	*	*	*	*	*	*	*	*
=39	=39	=39	=39	=39	=39	=39	=39	=39	=39	=39	=39	=39	=39	=39	=39	=39	=39	=39	=39	=39	=39	=39	=39	=39
!	!	!LO:TX:b:i:t=piz(zicato)	!	!	!	!	!	!	!	!	!	!	!	!	!	!	!	!	!	!	!	!	!	!
8BB/ 8BBB/	8r	8BB/	.	8r	.	8r	.	8r	.	2.ryy	.	2.ryy	.	2.r	.	.	2.r	.	.	2.r	.	8a/	Ci	.
8r	8a/ 8f#/ 8d#/ 8B/	8r	.	8f#\ 8B\	.	8d#/	.	8a/ 8B/	.	.	.	.	.	.	.	.	.	.	.	.	.	8f#/	co	.
*rep	*rep	*	*	*rep	*	*rep	*	*rep	*	*	*	*	*	*	*	*	*	*	*	*	*	*	*	*
8BB/ 8BBB/	8r	8BB/	.	8r	.	8r	.	8r	.	.	.	.	.	.	.	.	.	.	.	.	.	4.b/	ży-	.
8r	8a/ 8f#/ 8d#/ 8B/	8r	.	8f#\ 8B\	.	8d#/	.	8a/ 8B/	.	.	.	.	.	.	.	.	.	.	.	.	.	.	.	.
*Xrep	*Xrep	*	*	*Xrep	*	*Xrep	*	*Xrep	*	*	*	*	*	*	*	*	*	*	*	*	*	*	*	*
*rep	*rep	*	*	*rep	*	*rep	*	*rep	*	*	*	*	*	*	*	*	*	*	*	*	*	*	*	*
8BB/ 8BBB/	8r	8BB/	.	8r	.	8r	.	8r	.	.	.	.	.	.	.	.	.	.	.	.	.	.	.	.
8r	8a/ 8f#/ 8d#/ 8B/	8r	.	8f#\ 8B\	.	8d#/	.	8a/ 8B/	.	.	.	.	.	.	.	.	.	.	.	.	.	8a/	-ią	.
*Xrep	*Xrep	*	*	*Xrep	*	*Xrep	*	*Xrep	*	*	*	*	*	*	*	*	*	*	*	*	*	*	*	*
!!LO:LB:g=original
=40	=40	=40	=40	=40	=40	=40	=40	=40	=40	=40	=40	=40	=40	=40	=40	=40	=40	=40	=40	=40	=40	=40	=40	=40
8E/ 8EE/	8r	8E\	.	8r	.	8r	.	8r	.	2.ryy	.	2.ryy	.	2.r	.	.	2.r	.	.	2.r	.	8g#/	do	.
8r	8g#/ 8e/ 8B/	8r	.	8e\ 8B\	.	8e/	.	8g#/ 8B/	.	.	.	.	.	.	.	.	.	.	.	.	.	8b/	tej	.
!	!	!	!	!	!	!	!	!	!	!	!	!	!	!	!	!	!	!	!	!	!	!	!	!LO:DY:a
*rep	*	*	*	*	*	*rep	*	*	*	*	*	*	*	*	*	*	*	*	*	*	*	*	*	*
8E/ 8EE/	8r	8E\	.	8r	.	8r	.	8r	.	.	.	.	.	.	.	.	.	.	.	.	.	4.ee\	chwi-	<
8r	8g#/ 8e/ 8B/	8r	.	8e\ 8B\	.	8e/	.	8g#/ 8B/	.	.	.	.	.	.	.	.	.	.	.	.	.	.	.	.
*Xrep	*	*	*	*	*	*Xrep	*	*	*	*	*	*	*	*	*	*	*	*	*	*	*	*	*	*
*rep	*	*	*	*	*	*rep	*	*	*	*	*	*	*	*	*	*	*	*	*	*	*	*	*	*
8E/ 8EE/	8r	8E\	.	8r	.	8r	.	8r	.	.	.	.	.	.	.	.	.	.	.	.	.	.	.	.
8r	8g#/ 8e/ 8B#X/	8r	.	8e\	.	8e/	.	8g#/ 8B#X/	.	.	.	.	.	.	.	.	.	.	.	.	.	8b#X\	-li	.
*Xrep	*	*	*	*	*	*Xrep	*	*	*	*	*	*	*	*	*	*	*	*	*	*	*	*	*	*
=41	=41	=41	=41	=41	=41	=41	=41	=41	=41	=41	=41	=41	=41	=41	=41	=41	=41	=41	=41	=41	=41	=41	=41	=41
!	!	!	!	!	!	!	!	!	!	!	!	!	!	!	!	!	!	!	!	!	!	!	!	!LO:DY:a
8AA/ 8AAA/	8r	8AA/	.	8r	.	8r	.	8r	.	2.ryy	.	2.ryy	.	2.r	.	.	2.r	.	.	2.r	.	8.dd#\	Ci	[ >
8r	8a/ 8f#/ 8e/ 8c#/	8r	.	8c#\	.	8e/	.	8a/ 8c#/	.	.	.	.	.	.	.	.	.	.	.	.	.	.	.	.
.	.	.	.	.	.	.	.	.	.	.	.	.	.	.	.	.	.	.	.	.	.	16cc#\	co	.
8BB/ 8BBB/	8r	8BB/	.	8r	.	8r	.	8r	.	.	.	.	.	.	.	.	.	.	.	.	.	8.b\	ży-	.
8r	8a/ 8f#/ 8d#/ 8B/	8r	.	8d#\	.	8f#/	.	8a/ 8B/	.	.	.	.	.	.	.	.	.	.	.	.	.	.	.	.
.	.	.	.	.	.	.	.	.	.	.	.	.	.	.	.	.	.	.	.	.	.	16a/	-ią	]
8BB/ 8BBB/	8r	8BB/	.	8r	.	8r	.	8r	.	.	.	.	.	.	.	.	.	.	.	.	.	8.f#/	do	.
8r	8a/ 8f#/ 8d#/ 8B/	8r	.	8d#\	.	8f#/	.	8a/ 8B/	.	.	.	.	.	.	.	.	.	.	.	.	.	.	.	.
.	.	.	.	.	.	.	.	.	.	.	.	.	.	.	.	.	.	.	.	.	.	16b\	tej	.
=42	=42	=42	=42	=42	=42	=42	=42	=42	=42	=42	=42	=42	=42	=42	=42	=42	=42	=42	=42	=42	=42	=42	=42	=42
*	*^	*	*	*	*	*	*	*	*	*	*	*	*	*	*	*	*	*	*	*	*	*	*	*
8E/ 8EE/	8r	2ryy	8E\	.	8r	.	8r	.	8r	.	2.ryy	.	2.ryy	.	2.r	.	.	4r	.	.	4r	.	(8.f##X/L	chwi-	.
8r	8g#/L 8e/ 8B/	.	8r	.	8e\L	.	8e/L	.	8g#/L 8B/	.	.	.	.	.	.	.	.	.	.	.	.	.	.	.	.
.	.	.	.	.	.	.	.	.	.	.	.	.	.	.	.	.	.	.	.	.	.	.	16g#/Jk)	.	.
8E/ 8EE/	8g#/J 8e/ 8B/	.	8E\	.	8e\J	.	8e/J	.	8g#/J 8B/	.	.	.	.	.	.	.	.	4r	.	.	4r	.	8g#/	-li	.
8r	8r	.	8r	.	8r	.	8r	.	8r	.	.	.	.	.	.	.	.	.	.	.	.	.	8r	.	.
!	!	!	!	!	!	!	!	!	!	!LO:DY:a	!	!	!	!	!	!	!	!	!	!	!	!	!	!	!LO:DY:a
4G#\	8.b/L	4e\	4G#\	<[	4G#/	.	8e/L	.	8b'\L	<	.	.	.	.	.	.	.	8.G#/	Co	.	8.e/	.	8.b\	Co	<
.	.	.	.	.	.	.	16r	.	16r	.	.	.	.	.	.	.	.	.	.	.	.	.	.	.	.
.	16b#X/Jk	.	.	.	.	.	16e/Jk	.	16b#X'\Jk	[[	.	.	.	.	.	.	.	16G#/	po	.	16e/	.	16b#X\	po	[[
=43	=43	=43	=43	=43	=43	=43	=43	=43	=43	=43	=43	=43	=43	=43	=43	=43	=43	=43	=43	=43	=43	=43	=43	=43	=43
!	!	!	!	!	!	!	!	!	!	!LO:DY:a	!	!	!	!	!	!	!	!	!	!	!	!	!	!	!LO:DY:a
4.A\	(4dd#/	4.e\	4.A\	>	4.A/	.	4.e/	.	(4dd#\	>	2.ryy	.	2.ryy	.	2.r	.	.	4A/	na-	.	4e/	.	4dd#\	na-	>
.	8cc#/)	.	.	.	.	.	.	.	8cc#\)	]	.	.	.	.	.	.	.	8A/	-szym	.	8e/	.	8cc#\	-szym	]
8r	8r	8r	8r	]	8r	.	8r	.	8r	.	.	.	.	.	.	.	.	8r	.	.	8r	.	8r	.	.
!	!	!	!	!	!	!	!	!	!	!LO:DY:a	!	!	!	!	!	!	!	!	!	!	!	!	!	!	!LO:DY:a
4F##X\	4a#X/	4e\	4F##X\	<[	4F##X/	.	8e/L	.	8a#X/L	<	.	.	.	.	.	.	.	8.F##/	przyj-	.	8.e/	.	8.a#X/	przyj-	<
.	.	.	.	.	.	.	16r	.	16r	.	.	.	.	.	.	.	.	.	.	.	.	.	.	.	.
.	.	.	.	.	.	.	16e/Jk	.	16a#/Jk	[[	.	.	.	.	.	.	.	16F##/	dą	.	16e/	.	16a#/	-dą	[[
=44	=44	=44	=44	=44	=44	=44	=44	=44	=44	=44	=44	=44	=44	=44	=44	=44	=44	=44	=44	=44	=44	=44	=44	=44	=44
!	!	!	!	!	!	!	!	!	!	!LO:DY:a	!	!	!	!	!	!	!	!	!	!	!	!	!	!	!LO:DY:a
4.G#\	4cc#/	4.e\	4.G#\	>	4.G#/	.	4.e/	.	4cc#\	>	2.ryy	.	2.ryy	.	2.r	.	.	4G#/	zgo-	.	4e/	.	4cc#\	zgo-	>
.	8b/	.	.	.	.	.	.	.	8b\	]	.	.	.	.	.	.	.	8G#/	-nie	.	8e/	.	8b\	-nie	]
8r	8r	8r	8r	]	8r	.	8r	.	8r	.	.	.	.	.	.	.	.	8r	.	.	8r	.	8r	.	.
4G#\ 4C#\	8.ee/L	4e\	4C#/	.	4G#/	.	4e/	.	8.ee/L	.	.	.	.	.	.	.	.	4r	.	.	4r	.	8.ee\	Spraw	.
.	16g#/Jk	.	.	.	.	.	.	.	16g#/Jk	.	.	.	.	.	.	.	.	.	.	.	.	.	16g#/	by	.
*	*v	*v	*	*	*	*	*	*	*	*	*	*	*	*	*	*	*	*	*	*	*	*	*	*	*
!!LO:LB:g=original
=45	=45	=45	=45	=45	=45	=45	=45	=45	=45	=45	=45	=45	=45	=45	=45	=45	=45	=45	=45	=45	=45	=45	=45	=45
8A\ 8AA\	8r	8AA/	.	8A/L	.	8r	.	8r	.	2.ryy	.	2.ryy	.	2.r	.	.	2.r	.	.	2.r	.	4f#/	Bo-	.
8r	8f#/ 8e/ 8c#/	8r	.	8c#/J	.	8e/	.	8f#/	.	.	.	.	.	.	.	.	.	.	.	.	.	.	.	.
8A\ 8AA\	8r	8AA/	.	8r	.	8r	.	8r	.	.	.	.	.	.	.	.	.	.	.	.	.	8f#/	-że	.
8r	8f#/ 8e/ 8c#/	8r	.	8c#\	.	8e/	.	8f#/	.	.	.	.	.	.	.	.	.	.	.	.	.	16r	.	.
.	.	.	.	.	.	.	.	.	.	.	.	.	.	.	.	.	.	.	.	.	.	(16cc#/KL	w To-	.
4B\ 4BB\	8r	8BB/	.	8r	.	8r	.	8r	.	.	.	.	.	.	.	.	.	.	.	.	.	8.b/J)	.	.
.	8a/ 8f#/ 8d#/	8r	.	8d#\	.	8f#/	.	8a/	.	.	.	.	.	.	.	.	.	.	.	.	.	.	.	.
.	.	.	.	.	.	.	.	.	.	.	.	.	.	.	.	.	.	.	.	.	.	16a/	-bie	.
=46	=46	=46	=46	=46	=46	=46	=46	=46	=46	=46	=46	=46	=46	=46	=46	=46	=46	=46	=46	=46	=46	=46	=46	=46
!	!	!	!	!	!	!	!	!	!	!	!	!	!	!	!	!	!	!	!	!	!	!	!	!LO:DY:a
8E/ 8EE/	8r	8E\	.	8r	.	8r	.	8r	.	2.ryy	.	2.ryy	.	4r	.	.	4r	.	.	4r	.	(8.f##X/L	ży-	>
8r	8g#/ 8e/ 8B/	8r	.	8B/	.	8e/	.	8g#/	.	.	.	.	.	.	.	.	.	.	.	.	.	.	.	.
.	.	.	.	.	.	.	.	.	.	.	.	.	.	.	.	.	.	.	.	.	.	16g#/Jk)	.	.
*	*	*	*	*	*	*rep	*	*rep	*	*	*	*	*	*	*	*	*	*	*	*	*	*	*	*
8E/ 8EE/	8r	8E\	.	8r	.	8r	.	8r	.	.	.	.	.	4r	.	.	4r	.	.	4r	.	4g#/	-li	]
8r	8g#/ 8e/ 8B/	8r	.	8B/	.	8e/	.	8g#/	.	.	.	.	.	.	.	f	.	.	.	.	.	.	.	.
*	*	*	*	*	*	*Xrep	*	*Xrep	*	*	*	*	*	*	*	*	*	*	*	*	*	*	*	*
*	*	*	*	*	*	*rep	*	*rep	*	*	*	*	*	*	*	*	*	*	*	*	*	*	*	*
!	!	!	!	!	!	!	!	!	!	!	!	!	!	!	!	!LO:DY:a	!	!	!	!	!	!	!	!LO:DY:a
8C#/ 8CC#/	8r	8C#/	.	8r	.	8r	.	8r	.	.	.	.	.	8.C#/	Spraw	.	8.G#/	.	.	8.e/	Spraw	8.ee\	Spraw	f
8r	8g#/ 8e/ 8c#/	8r	.	8c#/	.	8e/	.	8g#/	.	.	.	.	.	.	.	.	.	.	.	.	.	.	.	.
.	.	.	.	.	.	.	.	.	.	.	.	.	.	16C#/	by	.	16G#/	.	.	16e/	by	16g#/	by	.
*	*	*	*	*	*	*Xrep	*	*Xrep	*	*	*	*	*	*	*	*	*	*	*	*	*	*	*	*
=47	=47	=47	=47	=47	=47	=47	=47	=47	=47	=47	=47	=47	=47	=47	=47	=47	=47	=47	=47	=47	=47	=47	=47	=47
8AA/ 8AAA/	8r	8AA/	.	8r	.	8r	.	8r	.	2.ryy	.	2.ryy	.	4AA/	Bo-	.	4A/	.	.	4c#/	Bo-	16f#/LL	Bo-	.
.	.	.	.	.	.	.	.	.	.	.	.	.	.	.	.	.	.	.	.	.	.	16e#X/	.	.
8r	8f#/ 8e/ 8c#/	8r	.	8c#/	.	8e/	.	8f#/	.	.	.	.	.	.	.	.	.	.	.	.	.	16f#/	.	.
.	.	.	.	.	.	.	.	.	.	.	.	.	.	.	.	.	.	.	.	.	.	16g#/JJ	.	.
8AA/ 8AAA/	8r	8AA/	.	8r	.	8r	.	8r	.	.	.	.	.	8AA/	-że	.	8A/	.	.	8c#/	-że	16a/LL	-że	.
.	.	.	.	.	.	.	.	.	.	.	.	.	.	.	.	.	.	.	.	.	.	16g#/	.	.
8r	8f#/ 8e/ 8c#/	8r	.	8c#/	.	8e/	.	8f#/	.	.	.	.	.	8r	.	.	8r	.	.	8r	.	16a/	.	.
.	.	.	.	.	.	.	.	.	.	.	.	.	.	.	.	.	.	.	.	.	.	16b/JJ	.	.
4AA#X/ 4AAA#X/	8r	4AA#X/	.	4c#^/	.	4e/	.	4gn^/	.	.	.	.	.	4r	.	.	4r	.	.	4r	.	16cc#\LL	w To-	.
.	.	.	.	.	.	.	.	.	.	.	.	.	.	.	.	.	.	.	.	.	.	16dd#\	.	.
.	.	.	.	.	.	.	.	.	.	.	.	.	.	.	.	.	.	.	.	.	.	8qff#/	.	.
.	8gn/ 8e/ 8c#/	.	.	.	.	.	.	.	.	.	.	.	.	.	.	.	.	.	.	.	.	16ee\JJ	.	.
.	.	.	.	.	.	.	.	.	.	.	.	.	.	.	.	.	.	.	.	.	.	16cc#\	-bie	.
=48	=48	=48	=48	=48	=48	=48	=48	=48	=48	=48	=48	=48	=48	=48	=48	=48	=48	=48	=48	=48	=48	=48	=48	=48
!	!	!	!	!	!	!	!	!	!	!	!	!	!	!	!	!	!	!	!	!	!	!	!	!LO:DY:rj:a
8BB/ 8BBB/	8r	8BB/	.	8B\L	.	8e/L	.	16g#X/LL	.	2.ryy	.	2.ryy	.	2BB/	w To-	.	2G#/	.	.	2e/	w To-	16b/LL	w To-	f
!	!	!	!	!	!	!	!	!	!LO:DY:a	!	!	!	!	!	!	!	!	!	!	!	!	!	!	!
.	.	.	.	.	.	.	.	16g#/	<	.	.	.	.	.	.	.	.	.	.	.	.	16g#/	.	.
!	!	!	!	!	!	!	!	!	!	!	!	!	!	!	!	!	!	!	!	!	!	!	!	!LO:DY:a
8r	8g#X/ 8e/ 8B/	8r	.	8e\J	.	8g#/J 8B/	.	16b/	.	.	.	.	.	.	.	.	.	.	.	.	.	16b/JJ	.	<
.	.	.	.	.	.	.	.	16ee/JJ	.	.	.	.	.	.	.	.	.	.	.	.	.	16ee\	-bie	.
*rep	*	*	*	*	*	*	*	*	*	*	*	*	*	*	*	*	*	*	*	*	*	*	*	*
8BB/ 8BBB/	8r	8BB/	.	8r	.	8r	.	16gg#\LL	.	.	.	.	.	.	.	.	.	.	.	.	.	4gg#\	Bo-	.
.	.	.	.	.	.	.	.	16ee\	.	.	.	.	.	.	.	.	.	.	.	.	.	.	.	.
8r	8g#/ 8e/ 8B/	8r	.	8e\	.	8g#/ 8B/	.	16b\	.	.	.	.	.	.	.	.	.	.	.	.	.	.	.	.
.	.	.	.	.	.	.	.	16gg#\JJ	.	.	.	.	.	.	.	.	.	.	.	.	.	.	.	.
*Xrep	*	*	*	*	*	*	*	*	*	*	*	*	*	*	*	*	*	*	*	*	*	*	*	*
*rep	*	*	*	*	*	*	*	*	*	*	*	*	*	*	*	*	*	*	*	*	*	*	*	*
8BB/ 8BBB/	8r	8BB/	.	8r	.	8r	.	16ff#\LL	.	.	.	.	.	4BB/	-bie	.	4A/	.	.	4d#/	-bie	4ff#\	-że	[[
.	.	.	.	.	.	.	.	16dd#\	.	.	.	.	.	.	.	.	.	.	.	.	.	.	.	.
8r	8f#/ 8d#/ 8B/	8r	.	8d#\	.	8a/ 8B/	.	16b\	.	.	.	.	.	.	.	.	.	.	.	.	.	.	.	.
.	.	.	.	.	.	.	.	16ff#\JJ	[[	.	.	.	.	.	.	.	.	.	.	.	.	.	.	.
*Xrep	*	*	*	*	*	*	*	*	*	*	*	*	*	*	*	*	*	*	*	*	*	*	*	*
=49	=49	=49	=49	=49	=49	=49	=49	=49	=49	=49	=49	=49	=49	=49	=49	=49	=49	=49	=49	=49	=49	=49	=49	=49
*	*^	*	*	*	*	*	*	*	*	*	*	*	*	*	*	*	*	*	*	*	*	*	*	*
!	!	!	!	!	!	!	!	!	!	!LO:DY:a	!	!	!	!	!	!	!	!	!	!	!	!	!	!	!LO:DY:a
2E\ 2EE\	8r	2ryy	8E\	.	8r	.	8r	.	(8.dd#\L	>	4r	.	4r	.	4E\	ży-	.	(8.A/L	.	.	(8.f#/L	ży-	(8.dd#\L	ży-	>
.	8f#/ 8d#/ 8B/	.	8r	.	8f#\	.	8f#/ 8B/	.	.	.	.	.	.	.	.	.	.	.	.	.	.	.	.	.	.
.	.	.	.	.	.	.	.	.	16ee\Jk)	]	.	.	.	.	.	.	.	16G#/Jk)	.	.	16e/Jk)	.	16ee\Jk)	.	.
.	4e/ 4B/	.	4E\	.	4e\	.	4g#/ 4B/	.	4ee\	.	4r	.	4r	.	4E\	-li	.	4G#/	.	.	4e/	-li	4ee\	-li	.
=:|	=:|	=:|	=:|	=:|	=:|	=:|	=:|	=:|	=:|	=:|	=:|	=:|	=:|	=:|	=:|	=:|	=:|	=:|	=:|	=:|	=:|	=:|	=:|	=:|	=:|
*>C	*	*	*	*	*	*	*	*	*	*	*	*	*	*	*	*	*	*	*	*	*	*	*	*	*
!	!	!	!	!	!	!	!	!	!	!LO:DY:a	!	!	!	!	!	!	!	!	!	!	!	!	!	!	!
4G#/ 4GG#/	8.b/L	4e\	8G#\L	.	8G#/L	.	8e/L	.	8b\L	<	4r	.	4r	.	4r	.	.	4r	.	.	4r	.	4r	.	]
.	.	.	16r	.	16r	.	16r	.	16r	.	.	.	.	.	.	.	.	.	.	.	.	.	.	.	.
.	16b#X/Jk	.	16G#\Jk	.	16G#/Jk	.	16e/Jk	.	16b#X\Jk	[[	.	.	.	.	.	.	.	.	.	.	.	.	.	.	.
!!LO:PB:g=original
=50	=50	=50	=50	=50	=50	=50	=50	=50	=50	=50	=50	=50	=50	=50	=50	=50	=50	=50	=50	=50	=50	=50	=50	=50	=50
!	!	!	!	!	!	!	!	!	!	!LO:DY:a	!	!	!	!	!	!	!	!	!	!	!	!	!	!	!
4.A\ 4.AA\	4dd#/	4.e\	4.A\	.	4.A/	.	4.e/	.	(4dd#\	>	2.ryy	.	2.ryy	.	2.ryy	.	.	2.ryy	.	.	2.ryy	.	2.ryy	.	.
.	8cc#/	.	.	.	.	.	.	.	8cc#\)	]	.	.	.	.	.	.	.	.	.	.	.	.	.	.	.
8r	8r	8ryy	8r	.	8r	.	8r	.	8r	.	.	.	.	.	.	.	.	.	.	.	.	.	.	.	.
4F##X/ 4FF##X/	4a#X/	4e\	8F##X\L	.	8F##X/L	.	8e/L	.	8a#X/L	.	.	.	.	.	.	.	.	.	.	.	.	.	.	.	.
.	.	.	16r	.	16r	.	16r	.	16r	.	.	.	.	.	.	.	.	.	.	.	.	.	.	.	.
.	.	.	16F##\Jk	.	16F##/Jk	.	16e/Jk	.	16a#/Jk	.	.	.	.	.	.	.	.	.	.	.	.	.	.	.	.
=51	=51	=51	=51	=51	=51	=51	=51	=51	=51	=51	=51	=51	=51	=51	=51	=51	=51	=51	=51	=51	=51	=51	=51	=51	=51
4.G#/ 4.GG#/	4cc#/	4.e\	4.G#\	.	4.G#/	.	4.e/	.	(4cc#\	.	2.ryy	.	2.ryy	.	2.ryy	.	.	2.ryy	.	.	2.ryy	.	2.ryy	.	.
.	8b/	.	.	.	.	.	.	.	8b\)	.	.	.	.	.	.	.	.	.	.	.	.	.	.	.	.
8r	8r	8ryy	8r	.	8r	.	8r	.	8r	.	.	.	.	.	.	.	.	.	.	.	.	.	.	.	.
!	!	!	!	!	!	!LO:DY:b	!	!	!	!LO:DY:b	!	!	!	!	!	!	!	!	!	!	!	!	!	!	!
4r	4r	4ryy	4r	.	4r	p	4r	.	4r	p	.	.	.	.	.	.	.	.	.	.	.	.	.	.	.
=52	=52	=52	=52	=52	=52	=52	=52	=52	=52	=52	=52	=52	=52	=52	=52	=52	=52	=52	=52	=52	=52	=52	=52	=52	=52
4.A\	4.f#/	2.c#\	4.A\	.	(4.A/	.	4.c#/	.	4.f#/	.	2.ryy	.	2.ryy	.	2.ryy	.	.	2.ryy	.	.	2.ryy	.	2.ryy	.	.
8G#\L	8e#X/L	.	8G#\L	.	8G#/L	.	8c#'/L	.	(8e#X/L	.	.	.	.	.	.	.	.	.	.	.	.	.	.	.	.
8A\	8f#/	.	8A\	.	8A/	.	8c#'/	.	8f#/	.	.	.	.	.	.	.	.	.	.	.	.	.	.	.	.
8E#X\J	8g#/J	.	8E#X\J	.	8E#X/J)	.	8c#'/J	.	8g#/J)	.	.	.	.	.	.	.	.	.	.	.	.	.	.	.	.
=53	=53	=53	=53	=53	=53	=53	=53	=53	=53	=53	=53	=53	=53	=53	=53	=53	=53	=53	=53	=53	=53	=53	=53	=53	=53
4.F#\	4.b/	2.c#\	4.F#\	.	(4.F#/	.	4.c#/	.	(4.b/	.	2.ryy	.	2.ryy	.	2.ryy	.	.	2.ryy	.	.	2.ryy	.	2.ryy	.	.
8F#\L	8a/L	.	8F#\L	.	8F#/L	.	8c#'/L	.	8a/L	.	.	.	.	.	.	.	.	.	.	.	.	.	.	.	.
8G#\	8g#/	.	8G#\	.	8G#/	.	8c#'/	.	8g#/	.	.	.	.	.	.	.	.	.	.	.	.	.	.	.	.
8A\J	8f#/J	.	8A\J	.	8A/J)	.	8c#'/J	.	8f#/J)	.	.	.	.	.	.	.	.	.	.	.	.	.	.	.	.
*	*v	*v	*	*	*	*	*	*	*	*	*	*	*	*	*	*	*	*	*	*	*	*	*	*	*
=54	=54	=54	=54	=54	=54	=54	=54	=54	=54	=54	=54	=54	=54	=54	=54	=54	=54	=54	=54	=54	=54	=54	=54	=54
!	!	!	!	!	!LO:DY:rj:b	!	!	!	!LO:DY:rj:a	!	!	!	!	!	!	!	!	!	!	!	!	!	!	!
16B\LL	16g#/LL 16e/	8B\	.	16B/LL	f	8e/	.	16g#'/LL	f	2.ryy	.	2.ryy	.	2.ryy	.	.	2.ryy	.	.	2.ryy	.	2.ryy	.	.
16G#\	16g#/	.	.	16G#'/	.	.	.	16g#'/	.	.	.	.	.	.	.	.	.	.	.	.	.	.	.	.
16E\	16e/	8r	.	16E'/	.	8r	.	16e'/	.	.	.	.	.	.	.	.	.	.	.	.	.	.	.	.
16G#\JJ	16g#/JJ	.	.	16G#'/JJ	.	.	.	16g#'/JJ	.	.	.	.	.	.	.	.	.	.	.	.	.	.	.	.
2B\	[>2b/	4r	.	[2B/	.	4r	.	[>2b/	.	.	.	.	.	.	.	.	.	.	.	.	.	.	.	.
.	.	4r	.	.	.	4r	.	.	.	.	.	.	.	.	.	.	.	.	.	.	.	.	.	.
!!LO:LB:g=original
=55	=55	=55	=55	=55	=55	=55	=55	=55	=55	=55	=55	=55	=55	=55	=55	=55	=55	=55	=55	=55	=55	=55	=55	=55
16B\LL	16b/LL]	2.r	.	16B/LL]	.	2.r	.	16b/LL]	.	2.ryy	.	2.ryy	.	2.ryy	.	.	2.ryy	.	.	2.ryy	.	2.ryy	.	.
16G#\	16g#/	.	.	16G#'/	.	.	.	16g#'/	.	.	.	.	.	.	.	.	.	.	.	.	.	.	.	.
16B\	16b/	.	.	16B'/	.	.	.	16b'/	.	.	.	.	.	.	.	.	.	.	.	.	.	.	.	.
16e\JJ	16ee/JJ	.	.	16e'/JJ	.	.	.	16ee'/JJ	.	.	.	.	.	.	.	.	.	.	.	.	.	.	.	.
[2B\	[>2b/	.	.	[2B/	.	.	.	[2b/	.	.	.	.	.	.	.	.	.	.	.	.	.	.	.	.
=56	=56	=56	=56	=56	=56	=56	=56	=56	=56	=56	=56	=56	=56	=56	=56	=56	=56	=56	=56	=56	=56	=56	=56	=56
8B\]	8b/]	4r	.	8B/]	.	4r	.	8b/]	.	2.ryy	.	2.ryy	.	2.ryy	.	.	2.ryy	.	.	2.ryy	.	2.ryy	.	.
8r	8ryy	.	.	8r	.	.	.	8r	.	.	.	.	.	.	.	.	.	.	.	.	.	.	.	.
!	!	!	!	!	!	!	!	!	!LO:DY:b	!	!	!	!	!	!	!	!	!	!	!	!	!	!	!
.	.	.	p	.	.	.	.	.	p	.	.	.	.	.	.	.	.	.	.	.	.	.	.	.
2BB\	4g#/ 4e/ 4B/	4BB/	.	(4B/	.	(4e/	.	(4g#/	.	.	.	.	.	.	.	.	.	.	.	.	.	.	.	.
.	4f#/ 4d#/ 4B/	4BB/	.	4A/)	.	4d#/)	.	4f#/)	.	.	.	.	.	.	.	.	.	.	.	.	.	.	.	.
=57	=57	=57	=57	=57	=57	=57	=57	=57	=57	=57	=57	=57	=57	=57	=57	=57	=57	=57	=57	=57	=57	=57	=57	=57
*	*	*2\right	*	*	*	*	*	*	*	*	*	*	*	*	*	*	*	*	*	*	*	*	*	*
2A\ [2E\ 2EE\	2f#/ 2d#/ 2B/	2.E\	.	(2A/	.	2d#/	.	(2f#/	.	2.ryy	.	2.ryy	.	2.ryy	.	.	2.ryy	.	.	2.ryy	.	2.ryy	.	.
4G#\ 4E\] 4EE\	4e/ 4B/	.	.	4G#/)	.	4e/	.	4e/)	.	.	.	.	.	.	.	.	.	.	.	.	.	.	.	.
==	==	==	==	==	==	==	==	==	==	==	==	==	==	==	==	==	==	==	==	==	==	==	==	==
*-	*-	*-	*-	*-	*-	*-	*-	*-	*-	*-	*-	*-	*-	*-	*-	*-	*-	*-	*-	*-	*-	*-	*-	*-
!!!system-decoration: {(s1,s2,s3,s4)}{(s5,s6)}{(s7,s8,s9,s10)}{(s11,s12)}
!!!RDF**kern: | = vertical stroke
!!!RDF**kern: > = above
!!!RDF**kern: < = below
!!!EED: Leszek Kubiak
!!!EEV: 2021-04-28
!!!ENC: Andrzej Gręziak
!!!END: 2021-04-12
